/* XPM */
static char *out[] = {
/* columns rows colors chars-per-pixel */
"32 32 197 2 ",
"   c #2A2D33",
".  c #2B2D33",
"X  c #2C2E33",
"o  c #2D2E33",
"O  c #2E2E33",
"+  c #2F2F33",
"@  c #2C2F35",
"#  c #2D2F35",
"$  c #302F33",
"%  c #313033",
"&  c #323033",
"*  c #333033",
"=  c #343133",
"-  c #353133",
";  c #363133",
":  c #363233",
">  c #373233",
",  c #383233",
"<  c #383333",
"1  c #393333",
"2  c #3A3333",
"3  c #3B3433",
"4  c #3C3433",
"5  c #3D3433",
"6  c #3F3633",
"7  c #393334",
"8  c #3A3434",
"9  c #3C3434",
"0  c #3D3534",
"q  c #3E3534",
"w  c #3F3635",
"e  c #413633",
"r  c #403634",
"t  c #403734",
"y  c #423734",
"u  c #433734",
"i  c #433834",
"p  c #453834",
"a  c #453934",
"s  c #443835",
"d  c #453935",
"f  c #463934",
"g  c #473934",
"h  c #473A35",
"j  c #483A35",
"k  c #493B35",
"l  c #4B3B35",
"z  c #4B3C35",
"x  c #4A3C36",
"c  c #4C3C35",
"v  c #4D3D35",
"b  c #4C3D36",
"n  c #4E3E36",
"m  c #4F3E36",
"M  c #503E35",
"N  c #513F35",
"B  c #503E36",
"V  c #513F36",
"C  c #534037",
"Z  c #544036",
"A  c #554136",
"S  c #544037",
"D  c #544137",
"F  c #564137",
"G  c #554237",
"H  c #574236",
"J  c #574237",
"K  c #584336",
"L  c #584337",
"P  c #594437",
"I  c #5E4637",
"U  c #594438",
"Y  c #5C4538",
"T  c #5D4538",
"R  c #5D4638",
"E  c #5C4639",
"W  c #5D4639",
"Q  c #5E4738",
"!  c #5F4738",
"~  c #5F4739",
"^  c #5F4839",
"/  c #604839",
"(  c #634A39",
")  c #61483A",
"_  c #62493A",
"`  c #634A3A",
"'  c #634A3B",
"]  c #654B39",
"[  c #644B3B",
"{  c #664B3A",
"}  c #664B3B",
"|  c #674C3B",
" . c #664C3C",
".. c #674C3C",
"X. c #674D3C",
"o. c #684D3C",
"O. c #6A4E3C",
"+. c #6B4E3C",
"@. c #6B4F3C",
"#. c #6B4F3E",
"$. c #6B503E",
"%. c #6C503D",
"&. c #6D503D",
"*. c #6C513E",
"=. c #6D513E",
"-. c #6F513F",
";. c #6E523F",
":. c #6F523F",
">. c #71533F",
",. c #705340",
"<. c #715440",
"1. c #725440",
"2. c #735441",
"3. c #735541",
"4. c #755641",
"5. c #745642",
"6. c #755642",
"7. c #765642",
"8. c #765742",
"9. c #765843",
"0. c #775843",
"q. c #775944",
"w. c #785843",
"e. c #785943",
"r. c #795943",
"t. c #795944",
"y. c #7A5944",
"u. c #7A5A44",
"i. c #7B5A44",
"p. c #7B5A45",
"a. c #7B5B45",
"s. c #7C5B45",
"d. c #7D5B45",
"f. c #7C5B46",
"g. c #7D5C45",
"h. c #7D5C46",
"j. c #7D5D46",
"k. c #7E5C46",
"l. c #7E5D47",
"z. c #7F5D47",
"x. c #7F5E47",
"c. c #805D47",
"v. c #805E47",
"b. c #805E48",
"n. c #815E48",
"m. c #815F48",
"M. c #825F48",
"N. c #825F49",
"B. c #826049",
"V. c #836049",
"C. c #846049",
"Z. c #846149",
"A. c #84614A",
"S. c #85614A",
"D. c #85624A",
"F. c #86624A",
"G. c #86624B",
"H. c #86634B",
"J. c #87634B",
"K. c #88644B",
"L. c #88634C",
"P. c #88644C",
"I. c #89644C",
"U. c #89654D",
"Y. c #8A654C",
"T. c #8A654D",
"R. c #8B664D",
"E. c #8B664E",
"W. c #8C664D",
"Q. c #8C674E",
"!. c #8D674E",
"~. c #8D684F",
"^. c #8E684F",
"/. c #8F6950",
"(. c #906A50",
"). c #916A50",
"_. c #916A51",
"`. c #926B51",
"'. c #936B51",
"]. c #926B52",
"[. c #936B52",
"{. c #926C51",
"}. c #926C52",
"|. c #936C52",
" X c #946C52",
".X c #946D52",
"XX c #946C53",
"oX c #956C53",
"OX c #956D53",
"+X c #956E53",
"@X c #966E53",
"#X c #976E54",
"$X c #976F54",
"%X c #986F54",
"&X c #986F55",
"*X c #987055",
"=X c #997055",
/* pixels */
"                                                                ",
"                  # & g A z 9 & O .                             ",
"                + 0 P ,.h.9.+.R m r - $ X                       ",
"            X : n o.a.V.V.V.V.c.w.-._ D d 1 & X                 ",
"          $ a ^ 6.m.V.V.V.V.V.V.V.V.b.u.<...U x 5 = o           ",
"      X 3 F ;.g.V.V.V.V.V.V.V.V.V.V.V.V.V.m.p.6.$.W u X         ",
"    * l  .t.n.V.V.V.V.V.D.T.I.F.V.V.V.V.V.V.V.V.M.t./ ,         ",
"o e Y 3.z.V.V.V.V.V.S.W.'.@X@X X).K.V.V.V.V.V.V.V.B.2.c O       ",
"M *.g.M.V.V.V.V.A.R.|.$X=X=X=X=X=X/.S.H._._.Q.G.V.V.l.[ 2       ",
"{ v.V.V.V.V.A.Y.[.#X=X=X=X=X=X=X=X@XE.}.&X*X$X/.V.V.V.8.B +     ",
"( M.V.V.V.P.`.$X=X=X=X=X=X=X=X=X=X=X$X*X=X=X=XXXA.V.V.v.| 4 .   ",
"! n.V.V.G.].=X=X=X*X=X=X=X=X=X=X=X=X=X=X=X=X=X@XI.V.V.V.w.C $   ",
"Y v.V.V.J.|.=X=X=X{..X=X=X=X=X=X=X=X=X=X=X=X=X%X^.V.V.V.M.O.w . ",
"J z.V.V.J.|.=X=XOXJ.^.*X=X=X=X=X=X=X=X=X=X=X=X=X}.A.V.V.V.i.H % ",
"Z j.V.V.J.|.=X=X~.A.^.=X=X=X=X=X=X=X=X=X=X=X=X=XOXP.V.V.V.V.&.i ",
"N f.V.V.J.|.=X=XQ.Z.P.|.*X=X=X=X=X=X=X=X=X=X=X=X$X!.V.V.V.V.d.K ",
"v t.V.V.J.|.=X=X|.F.V.T.%X=X=X=X=X=X=X=X=X=X=X=X+XU.V.V.V.V.0.N ",
"z e.V.V.J.|.=X=X&X/.!.].=X=X=X=X=X=X=X=X=X=X=X$X~.C.V.V.V.z.` < ",
"h 6.V.V.A./.=X=X=X%X%X*X=X=X=X=X=X=X=X=X=X=X*X_.A.V.V.V.V.1.j o ",
"s 2.V.V.V.J.|.=X=X=X=X=X=X=X=X=X=X=X=X=X=X=XoXJ.V.V.V.V.s.Y =   ",
"q %.N.V.V.V.T.OX=X=X=X=X&X&X=X=X=X=X=X=X=X$XT.V.V.V.V.M.%.y X   ",
"$ S 0.V.V.V.V.~.@X$X#X|.~./.#X=X=X=X=X=X%X^.C.V.V.V.V.r.G %     ",
"  ; Q d.V.V.V.A.L.R.K.C.V.A.R. X*X=X=X=X`.D.V.V.V.V.v.X.4       ",
"  . q X.z.V.V.V.V.V.V.V.V.V.V.J.(.OX#X XJ.V.V.V.V.B.5.n O       ",
"    o j :.m.V.V.V.V.V.V.V.V.V.V.A.P.R.P.V.V.V.V.V.h.) >         ",
"      $ C 7.B.V.V.V.V.V.V.V.V.V.V.V.V.V.V.V.V.V.m.,.f .         ",
"        ; E 4.p.x.M.V.V.V.V.V.V.V.V.V.V.V.V.V.V.p.U &           ",
"        . 7 b G E ' @.>.7.y.k.m.V.V.V.V.V.V.V.v.#.6             ",
"          . o $ & - 8 t k V L ~ } =.2.q.h.v.m.e.N o             ",
"                      . X O $ % : 0 p c Z T ] I 1               ",
"                                          @                     ",
"                                                                "
};
