/* XPM */
static char *ef7fbeef54a44053fe5757f8a08c94b92dpKC6cXLpQPmCEx[] = {
/* columns rows colors chars-per-pixel */
"32 32 64 1 ",
"  c #2B2D33",
". c #2E3035",
"X c #303237",
"o c #333539",
"O c #37383C",
"+ c #3B3C3F",
"@ c #3D3E40",
"# c #3F4143",
"$ c #434446",
"% c #454649",
"& c #47484A",
"* c #4A4B4C",
"= c #4E4E50",
"- c #4F5051",
"; c #515253",
": c #575758",
"> c #575858",
", c #5B5C5D",
"< c #636364",
"1 c #6A6B6B",
"2 c #737474",
"3 c #777878",
"4 c #7A7A7B",
"5 c #858586",
"6 c #878887",
"7 c #888788",
"8 c #8D8D8D",
"9 c #929292",
"0 c #989797",
"q c #9A9A9A",
"w c #A0A1A0",
"e c #A5A5A5",
"r c #A8A8A9",
"t c #ACACAC",
"y c gray68",
"u c #B1B1B1",
"i c #B6B6B6",
"p c #BBBBBB",
"a c gray75",
"s c #C1C1C1",
"d c #C3C4C3",
"f c gray78",
"g c #C8C8C8",
"h c #CBCCCB",
"j c gray80",
"k c #CFD0D0",
"l c LightGray",
"z c #D3D3D4",
"x c #D7D7D7",
"c c #D7D8D8",
"v c #D8D8D8",
"b c #DBDCDC",
"n c #DDDDDD",
"m c #E0DFE0",
"M c gray88",
"N c #E7E7E7",
"B c #E7E8E7",
"V c #E7E8E8",
"C c #E9EAEA",
"Z c #EBEBEC",
"A c #ECEBEC",
"S c #ECEDEC",
"D c gray95",
"F c #F4F4F4",
/* pixels */
"                                ",
"            o+$**$@o            ",
"         X$,2590q952<%X         ",
"        $17epglvvxgar81&.       ",
"      o:5rgMSDCVBCDSMhy6,o      ",
"     o<9anDni988889pnDMsq<O     ",
"    X<qgCNr8954224598rCCjq<o    ",
"    >9fZv993*OX  XO=399vSjq,.   ",
"   $5aCv88,o        o,89vAd7*   ",
"  X1rnN98;.           -89CMy1o  ",
"  %7gDr9,              ,9rDj8*  ",
"  ,enn83o              o38nMr<. ",
" o2pAi9*                *9pSa3O ",
" +5gD95O                O5qFj7$ ",
" $9zS84.                X49Sx9* ",
" *9cN82                  29Cvq- ",
" *9xN82                  29Cvq; ",
" %9lS84X                X49Sx9* ",
" @5gDq5O                O7qFj7$ ",
" o2aSp9*                -9pSs3o ",
"  ,eMn83o              o38nNy<. ",
"  %8gDy9,              ,9yDj9*  ",
"  X1yMC98;           .;99CNu2o  ",
"   $5sCn88,o        o,99nSf8*   ",
"    ,9gSn993=O.  XO-399nSkq,.   ",
"    o<qjCCy8964224799yCSjw1o    ",
"     o<9sMDmpq8999qpMDNfq1+     ",
"      o,5yjMSFSCCSFSMju7,O      ",
"       .%18rajxbbxjay91*X       ",
"         o*<379qq973<*o       % ",
"            o#*==*$o.        %2 ",
"                                "
};
