/* XPM */
static char *_ceb846d482d4305ce2e41b4af21b2918oYGQZwjDKxfYMrq[] = {
/* columns rows colors chars-per-pixel */
"32 32 5 1 ",
"  c #2A2D33",
". c #2B2E34",
"X c #2C2F35",
"o c #2D3036",
"O c #2F3239",
/* pixels */
"                                ",
"         X                      ",
"                                ",
"                                ",
"                                ",
"                      ..        ",
"                      Oo        ",
"                                ",
"               .                ",
"               .                ",
"   o.                           ",
"   O.                           ",
"                              X ",
"                                ",
"                                ",
"               ..               ",
"               ..               ",
"                                ",
"                                ",
"                                ",
" .                              ",
" .                              ",
"                         ..     ",
"                                ",
"                                ",
"                                ",
"         .      O.              ",
"                o.              ",
"                                ",
"                                ",
"                     X          ",
"                                "
};
