/* XPM */
static char *out[] = {
/* columns rows colors chars-per-pixel */
"32 32 210 2 ",
"   c #2A2D33",
".  c #2B2D33",
"X  c #2C2E33",
"o  c #2D2E33",
"O  c #2E2F33",
"+  c #2F2F33",
"@  c #2B2E34",
"#  c #2C2F35",
"$  c #302D32",
"%  c #2D3036",
"&  c #2F3239",
"*  c #303033",
"=  c #313033",
"-  c #323032",
";  c #323132",
":  c #333132",
">  c #343132",
",  c #343232",
"<  c #363232",
"1  c #3C3331",
"2  c #393432",
"3  c #3B3532",
"4  c #3D3531",
"5  c #3F3431",
"6  c #3C3632",
"7  c #4E3E2F",
"8  c #403731",
"9  c #413831",
"0  c #423831",
"q  c #423931",
"w  c #443A31",
"e  c #463B31",
"r  c #493D30",
"t  c #4B3D30",
"y  c #4B3E30",
"u  c #4C3E30",
"i  c #4D3F30",
"p  c #4E3F30",
"a  c #50402F",
"s  c #53422F",
"d  c #54412F",
"f  c #58452E",
"g  c #59462E",
"h  c #5F482D",
"j  c #5F4A2D",
"k  c #5C482E",
"l  c #604A2D",
"z  c #624A2C",
"x  c #634B2C",
"c  c #624B2D",
"v  c #624E2F",
"b  c #654D2C",
"n  c #664D2C",
"m  c #644E2E",
"M  c #694F2B",
"N  c #67512E",
"B  c #6A502B",
"V  c #6C512A",
"C  c #6D512A",
"Z  c #6D522A",
"A  c #6E522A",
"S  c #6E532A",
"D  c #6F532A",
"F  c #6E562F",
"G  c #70532A",
"H  c #725529",
"J  c #735529",
"K  c #725629",
"L  c #70542A",
"P  c #71542A",
"I  c #745629",
"U  c #745729",
"Y  c #755729",
"T  c #775828",
"R  c #71592F",
"E  c #7E5E28",
"W  c #785F31",
"Q  c #7D6331",
"!  c #7D6537",
"~  c #816127",
"^  c #8A6926",
"/  c #927125",
"(  c #967124",
")  c #967224",
"_  c #977324",
"`  c #9C7623",
"'  c #9E7722",
"]  c #9C7924",
"[  c #9A792A",
"{  c #9B7B2A",
"}  c #866C39",
"|  c #937731",
" . c #937832",
".. c #A17C22",
"X. c #A07C23",
"o. c #A17D23",
"O. c #A47F23",
"+. c #B0851E",
"@. c #B58E1F",
"#. c #B78E1E",
"$. c #B78F1E",
"%. c #BF911B",
"&. c #BF921B",
"*. c #B9901F",
"=. c #BC921D",
"-. c #A78322",
";. c #AC8220",
":. c #AB8621",
">. c #AE8820",
",. c #B28B20",
"<. c #B38D20",
"1. c #B99B3A",
"2. c #BA9B3A",
"3. c #D7A311",
"4. c #D6A314",
"5. c #DEB117",
"6. c #E2AD0F",
"7. c #EDB806",
"8. c #E7B70D",
"9. c #EBB70A",
"0. c #ECB709",
"q. c #EEB708",
"w. c #EFBE09",
"e. c #F0B907",
"r. c #F0BB06",
"t. c #F0BB07",
"y. c #F2BD04",
"u. c #F2BD05",
"i. c #F0BF09",
"p. c #DBB535",
"a. c #DCB634",
"s. c #F6C300",
"d. c #F7C300",
"f. c #F7C301",
"g. c #F5C102",
"h. c #F7C302",
"j. c #F7C203",
"k. c #F3C106",
"l. c #F3C207",
"z. c #F5C306",
"x. c #F6C506",
"c. c #FAC600",
"v. c #F9C502",
"b. c #F8C403",
"n. c #F9C403",
"m. c #FAC502",
"M. c #F9C603",
"N. c #F9C703",
"B. c #FAC702",
"V. c #FBC900",
"C. c #FCC800",
"Z. c #FCC900",
"A. c #FDC900",
"S. c #FECA00",
"D. c #FECB00",
"F. c #FFCC00",
"G. c #FFCC01",
"H. c #FFCC02",
"J. c #FFCD05",
"K. c #FFCD09",
"L. c #FFCD0F",
"P. c #FFCE0F",
"I. c #FFCF18",
"U. c #FECE1C",
"Y. c #FFD01E",
"T. c #FFD224",
"R. c #FFD228",
"E. c #FFD328",
"W. c #FFD42A",
"Q. c #F2CD3F",
"!. c #F4CD3F",
"~. c #FFD330",
"^. c #FFD534",
"/. c #FFD636",
"(. c #FFD638",
"). c #9F8542",
"_. c #9A834D",
"`. c #A88C44",
"'. c #A1884F",
"]. c #C0A141",
"[. c #C5A543",
"{. c #D7B542",
"}. c #D7B642",
"|. c #C7AD5F",
" X c #DBBC56",
".X c #DEBF58",
"XX c #CCB161",
"oX c #E9C64A",
"OX c #EAC74A",
"+X c #FBD444",
"@X c #FCD745",
"#X c #FED846",
"$X c #FFD946",
"%X c #FFD947",
"&X c #F9D54F",
"*X c #FAD650",
"=X c #FFDB53",
"-X c #FFDC53",
";X c #FFDC54",
":X c #FCDB5E",
">X c #FDDC5E",
",X c #FFDE60",
"<X c #E5CD7E",
"1X c #F1D570",
"2X c #F3D772",
"3X c #FFE16D",
"4X c #FFE37A",
"5X c #E9D280",
"6X c #FCE284",
"7X c #FDE384",
/* pixels */
"                                                                ",
"                  #                                             ",
"                                                                ",
"                                                                ",
"                                                                ",
"                          O d '._.7         @ @                 ",
"                        X 0 } 5X<X! 4       & %                 ",
"                        - m XX7X6X|.k +                         ",
"                      X p `.2X4X4X1X).u X                       ",
"                      3 Q .X3X3X3X3X XW <                       ",
"      % @         $ 5 R [.>X,X,X,X,X:X].F 1 .                   ",
"      & @ , y N  .2.}.OX*X-X=X=X=X=X;X&XoX{.1.| v r < X         ",
"        g { p.!.+X@X#X$X%X%X%X%X%X%X%X%X$X#X@X+XQ.a.[ s     #   ",
"        H ^ 5.U.R.~.^./.(.(.(.(.(.(.(.(./.^.~.R.U.5.^ J         ",
"        n A / 8.F.H.L.I.Y.T.E.W.W.E.T.Y.I.L.H.F.8./ A n         ",
"        q Z A _ w.F.F.F.G.J.K.P.P.K.J.G.F.F.F.w._ A M 8         ",
"          e B L ..k.F.F.F.F.F.A.A.F.F.F.F.F.k...L M w           ",
"          = a Z K $.B.F.F.F.C.c.c.Z.F.F.F.M.@.K V i O           ",
"            X a V X.k.F.F.Z.d.s.s.d.Z.F.F.i.] A f               ",
"              + x O.z.F.S.f.g.g.g.g.f.D.F.l.o.M ;               ",
"  @           o h :.N.D.j.y.y.y.y.y.u.h.D.x.-.x o               ",
"  @           + A ,.Z.b.r.t.t.7.7.t.t.r.n.V.>.z o               ",
"              o V *.m.e.q.6.%.` ` &.6.q.e.v.<.Z + @ @           ",
"              * S =.9.3.;.E U G G I ~ +.4.0.#.B o               ",
"              6 T ) ' Y A G C n n C G A U ' ( S :               ",
"              : C A Z D D l t 2 2 t l D D C A D <               ",
"              + b P D c 9 >     & @ > 9 c D H j o               ",
"                                % @                             ",
"                                                                ",
"                                                                ",
"                                          #                     ",
"                                                                "
};
