/* XPM */
static char *_7e2c2d7641d4b69a6d2baf7f3ff52afUuWm9NodBlTfPDYd[] = {
/* columns rows colors chars-per-pixel */
"32 32 75 1 ",
"  c #2A2D33",
". c #2B2E34",
"X c #2C2E34",
"o c #2D3036",
"O c #2E3238",
"+ c #30333A",
"@ c #31343B",
"# c #33373D",
"$ c #34393E",
"% c #363A40",
"& c #373C41",
"* c #383D42",
"= c #3A3F45",
"- c #3C4146",
"; c #3D4248",
": c #40454B",
"> c #41474C",
", c #444B4F",
"< c #444B50",
"1 c #474D52",
"2 c #484D53",
"3 c #484E54",
"4 c #4B5257",
"5 c #4B5258",
"6 c #4C5258",
"7 c #50575D",
"8 c #51585D",
"9 c #535A60",
"0 c #555E63",
"q c #565F65",
"w c #5B6367",
"e c #5A6268",
"r c #5B6468",
"t c #5D676C",
"y c #5F686E",
"u c #60686E",
"i c #626B70",
"p c #656E74",
"a c #677177",
"s c #697277",
"d c #6A7378",
"f c #6B757A",
"g c #6C767B",
"h c #6D777C",
"j c #6F7A7E",
"k c #70797E",
"l c #717C81",
"z c #757F84",
"x c #778187",
"c c #778388",
"v c #788489",
"b c #7C878C",
"n c #7E898E",
"m c #818D92",
"M c #838F94",
"N c #848F94",
"B c #869297",
"V c #8A969B",
"C c #8B979C",
"Z c #8B989D",
"A c #8D999F",
"S c #8F9BA0",
"D c #8F9CA2",
"F c #909DA2",
"G c #919FA5",
"H c #92A0A6",
"J c #93A2A8",
"K c #96A3A8",
"L c #96A5AB",
"P c #97A6AC",
"I c #98A7AE",
"U c #99A8AF",
"Y c #9AAAB1",
"T c #9BACB3",
"R c #9CACB3",
/* pixels */
"            ..    @>ep@ .       ",
"       ..o    o-7pxBASpo..      ",
"    ..    .*4uzBDFSAVVSt X.     ",
"       $<wkmAFSAVVVCCCZZ0 .     ",
"  . *qfnZFSAVVVCCCCCCCCCV6 .    ",
"  . sKSACVVCCCCCVVVZVCCCAB, .   ",
" . #nAVVCCCVCCCADHLUGVCCVAn; .  ",
" . 3AVCCVVASZVGYYYYYYHVCCVAv% . ",
" . uFVCVGPUYLAIYYYYYYYHVCCVSl#  ",
". OxSVCAUTYYYUYYYYYYYYYHVCCVSfo ",
". >VCCVDYYYYYYYYYYYYYYYYKVCCVDy.",
". wFVCVKYYYYYYYYYYYYYYYYYKCCCCCr",
" .lSVCZUYYYYYYYYYYYLPYYYYTKVCCAx",
" =BACVDYYYYYYYYYYYUCVKYYYYHVCCAw",
" 7FVCVKYYYYYYYYYYYGVVFYYYYSVCAM;",
" sFVCZIYYYYYYYYYYYIAALYYYICCVDjo",
"%bACVDYYYYYYYYYYYYYUUYYYYKVCVF0 ",
"5CCCVKYYYYYYYYYYYYYYYYYYYFVCAB- ",
"aAVCVHYYYYYYYYYYYYYYYYYYYACVSjX ",
"xACCCVPYYYYYYYYYYYYYYYYYLVCVD0 .",
",NACCVAYYYYYYYYYYYYYYYYYGVCAB= .",
" 8AVCCVFPYYYYYYYYYYYYYYYAVVSjX  ",
". iSVCCVCIYYYYYYYYYYYYYPCCVD9 . ",
". +lSVCCAUYYYYYYYYDUYYYHVCAN=   ",
" . =nAVCVFYYYYYYYKVDYYTDVVFh.   ",
"  . 1VCCCVKRYYYYYSVVFHFACVF8 .  ",
"   . 0SVCCAKJGFSACCCVVVCVAM*    ",
"   ..XaSVCCVVVVVVCCCCCCCVFg     ",
"    . #xAVCCCCCCCVVVVVVVCF8 .   ",
"     X ;MAVVVCCAASDFFFDACn* .   ",
"      . 4CASACVBncldie81>&      ",
"         wjie72:*@o             "
};
