/* XPM */
static char *_fe672dabeb148dfb2224564c7f303cdi4butOuAxnqn3CSC[] = {
/* columns rows colors chars-per-pixel */
"32 32 83 1 ",
"  c #34352F",
". c #38372F",
"X c #3D3A2C",
"o c #2A2D33",
"O c #2E3032",
"+ c #2E3238",
"@ c #313333",
"# c #423E2A",
"$ c #63561E",
"% c #67591D",
"& c #6C5C1C",
"* c #705F1A",
"= c #756217",
"- c #7B6616",
"; c #7E6A15",
": c #716019",
"> c #4C4527",
", c #494329",
"< c #544B24",
"1 c #584E22",
"2 c #5B5022",
"3 c #8E750F",
"4 c #95790D",
"5 c #9B7D0A",
"6 c #846D13",
"7 c #8A7210",
"8 c #9E800A",
"9 c #A48507",
"0 c #A98705",
"q c #AB8A05",
"w c #B18E02",
"e c #B59101",
"r c #BA9500",
"t c #BF9A03",
"y c #BC9808",
"u c #C39C02",
"i c #C89F00",
"p c #C59F0B",
"a c #CBA201",
"s c #C6A00A",
"d c #C9A30C",
"f c #D5AA01",
"g c #DFB200",
"h c #C9A512",
"j c #CEA911",
"k c #CEAB1A",
"l c #D1AC17",
"z c #D1AD19",
"x c #D6B11D",
"c c #D9B31F",
"v c #E3B500",
"b c #EBBC00",
"n c #D6B020",
"m c #DCB623",
"M c #DEB825",
"N c #E2BD27",
"B c #E2BD29",
"V c #EFC000",
"C c #F3C300",
"Z c #F9C600",
"A c #FBC902",
"S c #FECB00",
"D c #FFCE03",
"F c #FFD000",
"G c #E7C12B",
"H c #E9C32C",
"J c #F3C921",
"K c #F4CA21",
"L c #FFD324",
"P c #FFD525",
"I c #EBC631",
"U c #EDC730",
"Y c #ECC832",
"T c #F1CC36",
"R c #F4CF38",
"E c #F7D13B",
"W c #F7D33C",
"Q c #FBD63E",
"! c #FCD63E",
"~ c #FDD73F",
"^ c #FED842",
"/ c #FFDC43",
"( c #FFDE45",
/* pixels */
"ooooooooooooooo11ooooooooooooooo",
"oooooooooooooo=ee=oooooooooooooo",
"ooooooooooooo$wttw$ooooooooooooo",
"oooooooooooo<9rBMr9<oooooooooooo",
"oooooooooooX4tx^^lr4Xooooooooooo",
"ooooooooooO6rjE^/Ehr6OOooooooooo",
"oooooooOOo&wjT^^^(Ise&+@Oooooooo",
"ooooooooo20pI(^^^^^Buq1ooooooooo",
"oooooo.2:9rB^^^^^~^~ce9:1.oooooo",
"ooo <&6qadmQ^^^^^^~/Qzdi96%, ooo",
"o#260idhnY^^^^^^^^^^^^Hkdau5-1.o",
"#5iapkB^(^^^^^^^^^^^^^((Wmhpir3#",
"4rpmR((^~~^^^^^^^^^^^^^~^((Uxyr3",
"0eH/^^^^^^^^^^^^^^^^^^^^^^^^^xe3",
"2erT^^^^^^^^^^^^^^^^^^^^^^^^Ure1",
"o7rl~/^^^^^^^^^^^^^^^^^^^^^Qdr7o",
"o#erG^^^^^^^^^^^^^^^^^^^^^^Nr0.o",
"oo*euKPLLLLLLLLLLLLLLLLLLPJye%oo",
"oo@9efADDDDDDDDDSDDDDDDDDAfe4Ooo",
"ooo<wrbDDDDDDDDDSSDDDDDDSvr0#ooo",
"oooo3eaZDDDDSDDDDDDDDDSDCuw*oooo",
"oooo<qiCDDDDSDDDDDDDDDSDVr0 oooo",
"oooo#0iCDSSSSSDDDSDDDSSDVr9ooooo",
"oooo 0rCFSSSSSDDSSDDDSSDVr9ooooo",
"ooooo9rVFSDDDDDDSSSSDDSFbr0ooooo",
"ooooo9rVFSDDSSSDSSSSDDDDvr8ooooo",
"ooooo0rbFSSDDFDDDDFDDSDSve6ooooo",
"ooooo8rbDDFDZCbggbCZDFDSvw6ooooo",
"ooooo;wvZZCvfarrrrafvCZAvw6ooooo",
"ooooo6efgarrewq00qwerragfe6ooooo",
"ooooo&qewwq07$#oo#$69wwweq&ooooo",
"ooooo.;43:>oooooooooO>:34-oooooo"
};
