/* XPM */
static char *out[] = {
/* columns rows colors chars-per-pixel */
"38 38 199 2 ",
"   c #2A2D33",
".  c #2A2F3A",
"X  c #2A303E",
"o  c #293245",
"O  c #29334A",
"+  c #293752",
"@  c #293956",
"#  c #2A3B5A",
"$  c #2A3F63",
"%  c #2D4365",
"&  c #2D4668",
"*  c #374966",
"=  c #3C4D6B",
"-  c #3E506D",
";  c #354D70",
":  c #375A7C",
">  c #40526F",
",  c #445775",
"<  c #415B7D",
"1  c #505D73",
"2  c #58647C",
"3  c #395B80",
"4  c #3B6189",
"5  c #3D6895",
"6  c #416182",
"7  c #4B6585",
"8  c #476A89",
"9  c #556682",
"0  c #536A87",
"q  c #5A6A83",
"w  c #566C89",
"e  c #477089",
"r  c #54708E",
"t  c #436C97",
"y  c #4E7C95",
"u  c #41709F",
"i  c #607089",
"p  c #69778E",
"a  c #6B798F",
"s  c #6E7D93",
"d  c #4877A7",
"f  c #4677AA",
"g  c #4E7FB1",
"h  c #558197",
"j  c #588B9A",
"k  c #6E8398",
"l  c #748195",
"z  c #788497",
"x  c #5B92A9",
"c  c #4D80B5",
"v  c #4C83BC",
"b  c #5283B6",
"n  c #5184B9",
"m  c #5988BA",
"M  c #5A8BBD",
"N  c #6A87A7",
"B  c #649BAA",
"V  c #7893A7",
"C  c #6C8DB1",
"Z  c #6497BD",
"A  c #7798B7",
"S  c #7E9DBC",
"D  c #62A4AA",
"F  c #7DA0AC",
"G  c #6CADB1",
"H  c #7FADBA",
"J  c #6AB2B3",
"K  c #6BBBB5",
"L  c #6CBAB8",
"P  c #72B3B3",
"I  c #72BCBB",
"U  c #6CC3BA",
"Y  c #65CBBD",
"T  c #69CDBF",
"R  c #73C5BE",
"E  c #4B85C0",
"W  c #528AC2",
"Q  c #5C8DC0",
"!  c #5992C1",
"~  c #6396C5",
"^  c #6D9CCE",
"/  c #729AC5",
"(  c #709FD0",
")  c #69AFC3",
"_  c #6CA7CB",
"`  c #7EA5CD",
"'  c #75ADCE",
"]  c #6EB2C4",
"[  c #6DBDC5",
"{  c #7ABBCE",
"}  c #75A3D1",
"|  c #7AA6D3",
" . c #7DA9D3",
".. c #6CC3C2",
"X. c #6DCDC1",
"o. c #74C2C2",
"O. c #74CDC4",
"+. c #79CCC5",
"@. c #7AC4CB",
"#. c #7CCCCA",
"$. c #74D1C3",
"%. c #7CD3C6",
"&. c #7DD1C8",
"*. c #8396A9",
"=. c #8C9EB0",
"-. c #8BA3B5",
";. c #9BA6B3",
":. c #87B7BB",
">. c #90B7BD",
",. c #9CB0BE",
"<. c #A5AFBD",
"1. c #85A5C6",
"2. c #8DACCD",
"3. c #83B3C4",
"4. c #96BAC2",
"5. c #83ACD5",
"6. c #8CAFD4",
"7. c #81B3D2",
"8. c #87BAD4",
"9. c #8DB2D8",
"0. c #94B4D4",
"q. c #98B7D3",
"w. c #93B6DA",
"e. c #96B9DC",
"r. c #9BBCDD",
"t. c #ACB8C6",
"y. c #B1BEC8",
"u. c #A0BFDF",
"i. c #89CEC7",
"p. c #94CFCC",
"a. c #82D1C7",
"s. c #84D5CA",
"d. c #8AD6CC",
"f. c #8CD8CD",
"g. c #90D7CD",
"h. c #9ED2CE",
"j. c #92DACF",
"k. c #85C1D1",
"l. c #8CCBD1",
"z. c #95CCD5",
"x. c #9BCDD3",
"c. c #96C3D9",
"v. c #9AC6D9",
"b. c #93D5D2",
"n. c #95DBD1",
"m. c #9BDDD4",
"M. c #A6C2CA",
"N. c #A8C8CD",
"B. c #B9C3CD",
"V. c #A4C7D2",
"C. c #A4CAD2",
"Z. c #A8CCD3",
"A. c #A2C4DF",
"S. c #A4CBDE",
"D. c #BDCAD7",
"F. c #A7D4D6",
"G. c #A1DED6",
"H. c #A6D5DB",
"J. c #ABD4DB",
"K. c #A6DCDA",
"L. c #ABDBDD",
"P. c #B3DBDB",
"I. c #9FE0D6",
"U. c #A2E0D7",
"Y. c #A5E2D8",
"T. c #ABE3DB",
"R. c #B2E5DE",
"E. c #BEE1DF",
"W. c #A4C2E1",
"Q. c #ABC6E3",
"!. c #A6C8E0",
"~. c #AECAE4",
"^. c #B1CBE6",
"/. c #ADD0E1",
"(. c #AFDBE0",
"). c #B5D3E5",
"_. c #B3DCE2",
"`. c #BCDBE7",
"'. c #B8D0E8",
"]. c #B5E2E1",
"[. c #B9E9E1",
"{. c #C2CCD5",
"}. c #C5CFD9",
"|. c #C5D2DB",
" X c #C8D8DC",
".X c #C8D7E6",
"XX c #D5DDE3",
"oX c #C9E5E4",
"OX c #CEEEEA",
"+X c #D1E3EF",
"@X c #DBE4E9",
"#X c #D7EEEE",
"$X c #DCEAEE",
"%X c #D5E4F0",
"&X c #DAECF1",
"*X c #E0E7EB",
"=X c #E3ECF4",
"-X c #E6F1F4",
";X c #EAF4F5",
/* pixels */
"                                                                            ",
"                                    . .                                     ",
"                          . o o O o o o o o o o . .                         ",
"                    . o o o O # % < 7 7 < % @ O o o X .                     ",
"                  o o o # 0 -.Z.H.z.k.c.~.A.6.A 7 # o o X                   ",
"                o O + r 3.n.f.#.+.Y X.O.@.+.b.(.!.1.7 + o o                 ",
"            . o O = H j.d.X.{ |  .S._.Y.H.L.H.u.e.r.w.C % O o .             ",
"          . o o 7 l.I.R.T.!.w.5.e.^.Y.m.m.L.r.w.w.w.0.v.S ; O o             ",
"          o o w x.s.T._.'.~.~.W.~.^./.@.{ { 9.e.e.e./.T.x.N % O o           ",
"        o o - P.n.+.w.z.r.c.X.X.d.~.~.u.( ~ _ {  . .z.Y.I.B : # o X         ",
"        O # M.U.X.O.X.X.7.c.g.b./.Q.Q.Q.W.!.d.Y X...] &.n.m.D 6 + o         ",
"      X O k K.X.Y s.I.!.Q.^.'.'.^.~.Q.Q.Q.(.U.m.n.f.$.X.X.Y n.:.; O o       ",
"    . o # C.s.X.k.%.b.9.r.^.^.~.W.e.W.W.r.W.T.Y.Y.T.Y.$.Y Y a.g.h @ o       ",
"    X O a m.&.8.5.b.z.9.| | 9.| } ^ ^ w.S.L.U.T.R.T.Y.U.n.I.I y G & O X     ",
"    X O ,.d.+.5.u.T._.Q.5.| } } ^ ^ ^ ' I.U.U.T.R.R.T.T.T.X.T h V 0 O X     ",
"    o # |.P.k. .w.f.!.W.^.~.5.( ^ ^ @.#.%.T $.$.f.Y.Y.T.U.X.Y %.G r @ o     ",
"    o & &X`.5. .8.#. .| 6.w.5.( ^ { X.&.#.%.n.G.K.Y.T.T.T.T.j.T +.G # o     ",
"  . o a %X^.^.K.m.S.9.| ( } ' @.@.&.O.' ~ ' !.w.0.H.Y.Y.U.Y.n.$.B R , O X   ",
"  . O z %X^.).U.U.].^.9.{ a.s.s.I.(.!.r.w.r.q.w.w.q.V.F.R.f.T %.J a.0 o .   ",
"  . o z &X`.T.I.I.]._.(.G.T.T.Y.R.~.W.A.S.r.e.0.q.Z.J.J.Y.Y.U.I.T d.w o .   ",
"    o 2 +XR.T.Y.Y.].T.Y.U.Y.U.U.I.(.Q.W.(.].R.J.T.R.T.R.T.R.T.d.Y d.9 o     ",
"    O @ &X[.R.n.$.$.n.Y.Y.T.Y.T.T.Y.L.r.e.w.q.0.Z.R.T.R.T.T.Y.T %.E.& o     ",
"    o + |.R.U.T T $.T.[.T.T.Y.K.l.O.[ v M / 1.1.C.T.Y.U.f.f.$.T n.N.+ o     ",
"    o O <.#XY.%.d.T.T.T.n.%.' n E W v Q Z b f d I %.f.%.T T U $.f.;.O o     ",
"    . o i -X`.T.m.n.O.Y ..) c E v v / 2.2.1.S H C.U.U.Y.U.h.8 G m.q o X     ",
"      o + }.XX`.K.O.X.T W g v ~ ^ ` q.2.S C N k -.G.Y.T.j.j : P N.@ o       ",
"      o O s -X.Xr.M n _ ! E Q / A Z ] f d 5 4 h :.T.U.m.P 7 < h.p o X       ",
"        O # B.&X^.^ v ! +...! m f f o.d 5 3 j s.m.g.i.V h.:.=.<.+ o         ",
"        o o = XX=XQ.Q v ) Y X.$.Z u L x 4 e U T T Y R K a.:.<.* o X         ",
"          o O 0 @X=Xq.C m F.m.a.x t J X.U T R f.T U R K >.D.1 o o           ",
"          . o O 2  X=XD.A A V.V.4.p.i.I T T T d.4.V *.y. X2 o o             ",
"            . o o > t.=X-X|.y.N.T.R.,.-.F a.d.4.<.}.*XB.> o o .             ",
"                . o + p {.=X*XXX$XOXOXoXoXP.oX X@X Xl @ o o                 ",
"                  . o O # 2 ;.B.XX@X;X;X-X$X X<.q # O o X                   ",
"                    . . o o O @ $ q z s 2 & # O o o o                       ",
"                          . o o o o o o o o o o X                           ",
"                                    . .                                     ",
"                                                                            "
};
