/* XPM */
static char *out[] = {
/* columns rows colors chars-per-pixel */
"38 38 74 1 ",
"  c #342427",
". c #362528",
"X c #39272A",
"o c #3D292D",
"O c #2A2D33",
"+ c #302F35",
"@ c #353137",
"# c #373338",
"$ c #3B3339",
"% c #43292E",
"& c #452C31",
"* c #4A2E34",
"= c #463136",
"- c #4D3136",
"; c #44353C",
": c #4B353C",
"> c #43393F",
", c #513137",
"< c #53343A",
"1 c #59373D",
"2 c #56393F",
"3 c #59393F",
"4 c #4E3D43",
"5 c #553B42",
"6 c #5C3B42",
"7 c #623E45",
"8 c #4F4046",
"9 c #524147",
"0 c #5D444C",
"q c #644047",
"w c #654249",
"e c #6C444C",
"r c #62484F",
"t c #6A494F",
"y c #72464E",
"u c #72484F",
"i c #674B52",
"p c #6D4C52",
"a c #734C53",
"s c #7A4C55",
"d c #7C4F58",
"f c #6F5157",
"g c #715056",
"h c #745359",
"j c #7B545B",
"k c #7B595F",
"l c #7E5A61",
"z c #824F59",
"x c #84535C",
"c c #8A545E",
"v c #8D5761",
"b c #845C63",
"n c #8C5B65",
"m c #8E5F68",
"M c #905762",
"N c #945A65",
"B c #995C67",
"V c #965F68",
"C c #9A5E69",
"Z c #8C636B",
"A c #94646D",
"S c #9C626D",
"D c #9E6772",
"F c #956971",
"G c #9D6A74",
"H c #A0636E",
"J c #A06671",
"K c #A26B75",
"L c #A56E78",
"P c #A86E79",
"I c #A4717B",
"U c #A9747E",
"Y c #AB7680",
"T c #AD7881",
/* pixels */
"OOOOOOOOOOOOOOOOOOOOOOOOOOOOOOOOOOOOOO",
"OOOOOOOOOOOOOOOOOOOOOOOOOOOOOOOOOOOOOO",
"OOOOOOOOOOOOOOO+OOOOOOOOOOOOOOOOOOOOOO",
"OOOOOOOOOOOOOO+#;0ri0;$OOOOOOOOOOOOOOO",
"OOOOOOOOOOOO#4hAGGZcbNvd4#OOOOOOOOOOOO",
"OOOOOOOOOO#9lZbjpetxdecxxd4#OOOOOOOOOO",
"OOOOOOOOO>ilZkpknmNcNBBcxvxq$OOOOOOOOO",
"OOOOOOOO8fhhpitlKLASCNx3<7suq;OOOOOOOO",
"OOOOOOO8hffhlphhhxHSccd67q0ws3;OOOOOOO",
"OOOOOO4hflIYFbjpipnSNNNcq3-<e1-;OOOOOO",
"OOOOO#lfhFYYTYIGGnSNHBNt<<3<,3*<@OOOOO",
"OOOOOrZhfflYILGGGAACBcx336<-<,<15OOOOO",
"OOOO#lhfffffZIKGbgcANNv36w62-%<.3$OOOO",
"OOO+0fffhhflGIKJKawxSxq6gv6<&%-&&>OOOO",
"OOOOhfhhhhhYIGIPLNteawwq73,&&&-3&;@OOO",
"OOO@llFfflhIKGUPLJVSSwq3<<-*-&%--=@OOO",
"OOO$ZZZtfGZlGGDDSHSBBa11511<-&%*<<=OOO",
"OOO0FFftibgibSSCHBNNNNa751<<-&-<,1:OOO",
"OOO0ZkrtitppbDDCNNBNNxw1<<<&%&<<<<;OOO",
"OOOrFaaptgaanSVBBBcx6<<7e6&&&<<,<<;OOO",
"OOO0ltqraatjSCCCMccz1<1eyu<16<,,<1:OOO",
"OOO$b7qqwpaHHCBvNMce7<7yy771<<,,<<;OOO",
"OOO$bjw7etjHvjvNMzyy7,7eee3<<o,,1:#OOO",
"OOOOjtwteexNswwNcxcsa7<-*X-,&X-%1<OOOO",
"O+OO9jteedvNd77ezssyya<*% -o.X &,:OOOO",
"OOOO$x3wzszNv666es7sey6%X..XX&&&<#OOOO",
"OOOOO0twdyzvv76551y7e7:5XXX%*%%,;OOOOO",
"OOOOO@svzszcssu5<7y77,XoX.o<*&*1OOOOOO",
"OOOOOO:xzzzeyyy6<7e7oX.&..*,&&<=OOOOOO",
"OOOOOOO:s57a7yy7-77,o o-Xo&.%&;OOOOOOO",
"OOOOOOOO;w1zs77711&**o&*...o*;OOOOOOOO",
"OOOOOOOOO=6711,,&&%%o&&o .o:;OOOOOOOOO",
"OOOOOOOOOOO:<=oo%%%X. X%o::@OOOOOOOOOO",
"OOOOOOOOOOOO#:2,&%&*%%*<:$OOOOOOOOOOOO",
"OOOOOOOOOOOOOOO$;;::;$$+OOOOOOOOOOOOOO",
"OOOOOOOOOOOOOOOOOOOOOOOOOOOOOOOOOOOOOO",
"OOOOOOOOOOOOOOOOOOOOOOOOOOOOOOOOOOOOOO",
"OOOOOOOOOOOOOOOOOOOOOOOOOOOOOOOOOOOOOO"
};
