/* XPM */
static char *out[] = {
/* columns rows colors chars-per-pixel */
"32 32 187 2 ",
"   c #2A2D33",
".  c #2C323B",
"X  c #2D3540",
"o  c #2F3A47",
"O  c #313D4B",
"+  c #32404F",
"@  c #344353",
"#  c #36495C",
"$  c #394B5D",
"%  c #1F496F",
"&  c #1D4B72",
"*  c #3B4E60",
"=  c #334D69",
"-  c #36536F",
";  c #365777",
":  c #3C6D6B",
">  c #2F6779",
",  c #415262",
"<  c #42586E",
"1  c #425B73",
"2  c #45656D",
"3  c #466778",
"4  c #526775",
"5  c #54737B",
"6  c #5C777B",
"7  c #577A7A",
"8  c #3C865C",
"9  c #3D8B5F",
"0  c #3F8D61",
"q  c #3C8479",
"w  c #448C64",
"e  c #4E8F6A",
"r  c #429266",
"t  c #49946A",
"y  c #449A69",
"u  c #4C9A6E",
"i  c #50906B",
"p  c #408876",
"a  c #568579",
"s  c #489576",
"d  c #5C9674",
"f  c #5B9C7A",
"g  c #638A7E",
"h  c #639B7C",
"j  c #62A27D",
"k  c #225683",
"l  c #235887",
"z  c #225B8D",
"x  c #325A81",
"c  c #225D91",
"v  c #3C6185",
"b  c #276597",
"n  c #356694",
"m  c #396FA0",
"M  c #496C8C",
"N  c #586F81",
"B  c #55728D",
"V  c #4C779E",
"C  c #4F7F9D",
"Z  c #527493",
"A  c #56799A",
"S  c #637D83",
"D  c #4E79A5",
"F  c #5078A0",
"G  c #4B8987",
"H  c #5A9C85",
"J  c #4D9695",
"K  c #579B99",
"L  c #648281",
"P  c #738B8F",
"I  c #659E80",
"U  c #6A9C81",
"Y  c #6F8F90",
"T  c #698299",
"R  c #738697",
"E  c #59A083",
"W  c #66A681",
"Q  c #6BA383",
"!  c #6FAB88",
"~  c #75A388",
"^  c #75AC8D",
"/  c #79A98D",
"(  c #77B08F",
")  c #66A498",
"_  c #77A995",
"`  c #7DAC93",
"'  c #7EB09D",
"]  c #418EA0",
"[  c #5B82A9",
"{  c #4E94AD",
"}  c #5F99AD",
"|  c #478BB8",
" . c #5687B4",
".. c #4B91B9",
"X. c #5190B3",
"o. c #5C91BD",
"O. c #6C8DA0",
"+. c #6487A9",
"@. c #6289AC",
"#. c #6B8BA9",
"$. c #708EA9",
"%. c #6D92AC",
"&. c #7B95A7",
"*. c #7A9DAA",
"=. c #628BB3",
"-. c #6898B7",
";. c #64A1A6",
":. c #6CA6A8",
">. c #78A7A9",
",. c #76A4B0",
"<. c #7CADB3",
"1. c #4085C2",
"2. c #4389C4",
"3. c #4C8EC7",
"4. c #5D93C6",
"5. c #5694C9",
"6. c #5D96CA",
"7. c #679AC7",
"8. c #75A2CC",
"9. c #78A7C9",
"0. c #7DABD2",
"q. c #84AC95",
"w. c #88AC9A",
"e. c #86B198",
"r. c #86B69A",
"t. c #8CB59E",
"y. c #859DA0",
"u. c #8A9EAF",
"i. c #809FBA",
"p. c #85A5A1",
"a. c #84ACA6",
"s. c #8DB6A3",
"d. c #8DB9A1",
"f. c #8EB9AC",
"g. c #90B7A1",
"h. c #93BAA4",
"j. c #95BDAC",
"k. c #98BEA9",
"l. c #83A9BB",
"z. c #8BAABB",
"x. c #83B1B5",
"c. c #8AB5B8",
"v. c #97BAB7",
"b. c #99BFB4",
"n. c #95BCBB",
"m. c #96C0AC",
"M. c #9CC2AD",
"N. c #9DC5B1",
"B. c #9DC3BB",
"V. c #A2C5BA",
"C. c #A6C8B9",
"Z. c #86ABC2",
"A. c #8EACC5",
"S. c #86ACCD",
"D. c #95AFC3",
"F. c #99AFC1",
"G. c #8CB4C2",
"H. c #8AB3CF",
"J. c #96BCC1",
"K. c #93B0CB",
"L. c #93B9CA",
"P. c #83ADD3",
"I. c #88AFD3",
"U. c #86B1D5",
"Y. c #8BB3D5",
"T. c #91B7D7",
"R. c #94B8D7",
"E. c #9FBFD5",
"W. c #97BAD8",
"Q. c #A1BED6",
"!. c #A1BFD9",
"~. c #9DC1C6",
"^. c #9CC0CB",
"/. c #A2C5C3",
"(. c #A8C7C1",
"). c #AAC9C3",
"_. c #A4C5CC",
"`. c #ADC4D7",
"'. c #A5C2DB",
"]. c #AAC5DC",
"[. c #B6CED6",
"{. c #B3CADF",
"}. c #B9CFD9",
"|. c #B7CDE0",
" X c #B9CEE0",
".X c #BED1E1",
"XX c #C0D3E2",
/* pixels */
"                                                                ",
"                  .       . X . . . . .                         ",
"                    X o O O O @ @ O O O O X                     ",
"                X O O $ B u.F.Z.+.Z 1 1 $ O O X                 ",
"              o O , #.S.U.T.Y.0.I.].D. .7.$.* O O               ",
"          . o @ R `.W.Y.Y.Y.U.0.0.].`.i.6.7.S.B O o .           ",
"        . O @ u.).V.c.T.T.Y.'.].P.U.].Q.4.3.2.7.Z @ o .         ",
"        o + &.(.g.r.) x.{.{.T.'.'.P.A &.K.8.8.1.| O.@ X         ",
"      . O 7 ! h.g.h.^ ) ]. X].U.{.{.K.< &.'.W.U.K n.S O o       ",
"      O , H h.h.g.h.C.Q.H.'.'.U.'.{.{.!.E._.' n.x.H s.< O       ",
"    . @ P / e.q.h.M.N.V.<.'.|.T.P.W.].].~.B.j ! g.e.g.R O X     ",
"    O , _ h.w 8 h k.N._.R.T.'.T.:.;.%.~._.M.j w t.t.h.s.* o     ",
"    O N / h.e.' c.{..X[.{.W.Y.:.:.H K ` ~.M.t.8 / h.d.N.5 O .   ",
"  . + a t.k.^ .X}..X.X.XXX XT.P.0.t 0 ` d.h.h.h e g.h.d.Y O .   ",
"  . + p.g.~ 9 >.'.|.XXXX.X.X/.W.9.) ,.' ~.^.h./ 8 W h.J.w.O .   ",
"  . @ p.h.w r G.T.T.]..X X X[. X'.0 j u s.h.h.h.d y f.Z.y.# .   ",
"  X @ y.e.0 E T.Y.Y.Y.W.!.{.}.C.N.( d ' e t.g.g.<.p -.7.C @ .   ",
"  . O y.Q 9 <.Y.Y.R.P.P.8.9.{.V.m.m.h.t.w.q.g.t.,.n m D n O .   ",
"  . O P / 8 G.U.P.W.!.8.N * T _.k.g.m.g.g.g.g.f.Z.[ D =.x O .   ",
"    o 6 h.i f.x.0.7.i.].!.A.o.a.d.g.d.m.h.g.j.i.F @.b @.- O     ",
"    o , e.g.g.r.A # * M S.E.P.o.N.N.h.m.h.M.v.z.n c b c @ o     ",
"    . O 6 t.h.t.7 C 4.6.5.8.T.7.;.N.M.d.k.g.h.z.#.z F ; O X     ",
"      O , a g.g.q.G X.3.3.2.6.L.` ( N.B.M.v.#.z c z l = O       ",
"      X O 2 h g.s.f J ..1.| K j.m.r.W d.b.F.l.V l k = O X       ",
"        O O 5 w.g.I { 0 ] } J.A.n.j.*.n _ *.A l k - O o .       ",
"          O @ 5 U u w W s s u _ r.s.*.E q k M v ; O o .         ",
"          . O + - > q j.d.w 8 w ` 0 0 0 > v A 4 O o .           ",
"            . o O # 2 g e.~ 8 8 Q h M & % 3 # O O X             ",
"                X O O $ 4 6 L 7 : : < = @ O O X                 ",
"                    . O O + + @ @ + O o X . .                   ",
"                          . . X . . .                           ",
"                                                                "
};
