/* XPM */
static char *out[] = {
/* columns rows colors chars-per-pixel */
"38 38 195 2 ",
"   c #2A2D33",
".  c #2B3139",
"X  c #2E3642",
"o  c #2F3A47",
"O  c #303C4A",
"+  c #354353",
"@  c #384756",
"#  c #364759",
"$  c #37495C",
"%  c #3A4B5D",
"&  c #397959",
"*  c #1C4B73",
"=  c #2D4D6C",
"-  c #364C62",
";  c #3A4E61",
":  c #364F69",
">  c #3E5164",
",  c #3D546A",
"<  c #254E73",
"1  c #28557A",
"2  c #34587A",
"3  c #397661",
"4  c #2F6A7C",
"5  c #415162",
"6  c #40566B",
"7  c #43596D",
"8  c #4A5D6E",
"9  c #465D73",
"0  c #4A5E71",
"q  c #47606D",
"w  c #476377",
"e  c #4C657B",
"r  c #536575",
"t  c #506978",
"y  c #477574",
"u  c #3C865C",
"i  c #3C8A5F",
"p  c #3E8D61",
"a  c #3F9063",
"s  c #3E8679",
"d  c #428C63",
"f  c #4E8F6A",
"g  c #508268",
"h  c #429466",
"j  c #449969",
"k  c #47986C",
"l  c #52926D",
"z  c #598A73",
"x  c #4B9A71",
"c  c #4D9B7D",
"v  c #569671",
"b  c #5B9575",
"n  c #569C77",
"m  c #659B7B",
"M  c #68A17F",
"N  c #1F5380",
"B  c #205685",
"V  c #205A8B",
"C  c #275A89",
"Z  c #345D84",
"A  c #235E91",
"S  c #3D6286",
"D  c #387583",
"F  c #276498",
"G  c #3B6995",
"H  c #307099",
"J  c #2D6FA7",
"K  c #3C72A3",
"L  c #327EBF",
"P  c #496B8A",
"I  c #536C82",
"U  c #577786",
"Y  c #446E98",
"T  c #4D759A",
"R  c #5B7B99",
"E  c #637F98",
"W  c #4172A0",
"Q  c #4978A6",
"!  c #567CA2",
"~  c #3F84B3",
"^  c #428B82",
"/  c #479687",
"(  c #5B9C85",
")  c #599A8A",
"_  c #568799",
"`  c #4A949B",
"'  c #599A98",
"]  c #648788",
"[  c #6D8A8C",
"{  c #699586",
"}  c #6C8397",
"|  c #6E999C",
" . c #759C99",
".. c #5DA18C",
"X. c #5FA195",
"o. c #6EA485",
"O. c #6BA985",
"+. c #67A58A",
"@. c #72A487",
"#. c #75A488",
"$. c #72AC8B",
"%. c #6AA699",
"&. c #7AA794",
"*. c #7CAD91",
"=. c #5686A8",
"-. c #5095AF",
";. c #448CB3",
":. c #4D91B6",
">. c #5A95BB",
",. c #6384A4",
"<. c #6B8BA9",
"1. c #668DB0",
"2. c #6B97B6",
"3. c #6791B9",
"4. c #7394B3",
"5. c #739ABD",
"6. c #7C9EBB",
"7. c #7BA7A6",
"8. c #6EA3B3",
"9. c #78AAB8",
"0. c #3B83C2",
"q. c #458AC5",
"w. c #4C8EC7",
"e. c #5691C4",
"r. c #5B93C3",
"t. c #5B95C9",
"y. c #699BC8",
"u. c #75A6C8",
"i. c #7BA9CD",
"p. c #7CAAD2",
"a. c #82AE95",
"s. c #84A799",
"d. c #83B197",
"f. c #86B39A",
"g. c #8DB49E",
"h. c #819DB5",
"j. c #81AAA6",
"k. c #90ADA9",
"l. c #8EB6A1",
"z. c #8DB9A1",
"x. c #88B5AB",
"c. c #90B7A1",
"v. c #93BAA4",
"b. c #94B6AA",
"n. c #94BDAB",
"m. c #99BDAA",
"M. c #85A6B6",
"N. c #86A3BD",
"B. c #89B2B8",
"V. c #92B7B7",
"C. c #94BBB4",
"Z. c #9BBEBC",
"A. c #93C0A7",
"S. c #95C1A9",
"D. c #9BC2AD",
"F. c #9CC2B3",
"G. c #9BC1BA",
"H. c #A1C6B1",
"J. c #A3C6BE",
"K. c #85A9C1",
"L. c #8AA8C3",
"P. c #94AFC5",
"I. c #8FB6CB",
"U. c #92BAC5",
"Y. c #95B1C9",
"T. c #94B9CB",
"R. c #82AED3",
"E. c #86B1D5",
"W. c #8BB3D5",
"Q. c #91B7D6",
"!. c #94B9D6",
"~. c #9DBAD2",
"^. c #96B9D8",
"/. c #9CBCD9",
"(. c #A2B9C4",
"). c #A2BFD8",
"_. c #9DC0D0",
"`. c #A6C6C5",
"'. c #A7C7C7",
"]. c #ABC9C9",
"[. c #B1CCCC",
"{. c #A4C3D4",
"}. c #ADC1D0",
"|. c #A5C2DB",
" X c #AAC5DC",
".X c #AFC8DD",
"XX c #B5CDD3",
"oX c #B0C7DA",
"OX c #B3CADE",
"+X c #B9CEDE",
"@X c #BBD0DB",
"#X c #B7CCE0",
"$X c #B9CEE0",
"%X c #BED1E1",
"&X c #C1D3E2",
/* pixels */
"                                                                            ",
"                                    . . .                                   ",
"                          . o O O O O O O O O o .                           ",
"                    . X O O O @ @ 0 e w 6 $ + O O O o                       ",
"                  . + O + w ,.L.oX XQ.y.5.E w P 6 O O O X                   ",
"                o O + r 9.E.W.W.W.R.p.R.oX Xh.e.p.6.I O O o                 ",
"            . o O 5 h..XQ.W.W.W.W.E.R.p.). X|.1.w.t.W.<.; O O .             ",
"            o O 8 (.XXJ.B.Q.W.W.W..X/.p.R. X XL.t.w.q.y.3., O O             ",
"        . X O q }.F.c.*.9._._..X^.^.#XQ.p.y.L.).y.r.t.0.L 1., O O           ",
"        X O > ( H.c.c.v.n x .X%X#XQ.W.#X|.L., 9 P.).^.p.;.9.M.> O X         ",
"        O + ] o.m.v.l.v.z.+.!..X#X^.E.oX+XOXI.U Y.).~.!.i.' z. .+ O .       ",
"      X O t n g.v.v.z.v.]..XK.!.#X/.E.^.OXOX.X|.).'.$.x.A.7.v b.r O X       ",
"      O @  .*.*.f.a.D.D.D.[.+.!. X#XE.R.Q.|. X XF.F.$.x g.v.f.v.7.+ O .     ",
"    . O r f.v.b u d f.D.S.].^.!./. XE.9...1.T.{.`.D.O.d $.g.g.v.m.0 O .     ",
"    X + ] O.z.a.l j U.OX@X]. X!.Q.W.9.( c 2.( G.}.D.c.d l v.c.v.F.[ + X     ",
"    o + ] C.m.c.].`.OX@X@X&X%X$X^.W.9.R.( p j g.m.S.S.{ u d.v.g.v.s.@ O     ",
"    O 5 &.v.v.b U.#X%X$X&X&X&X&X$X/.R.p.X.) x z.z.S.v.a.u l v.v.n.x.% O     ",
"    O 0 m.v.b u j T./.#X&X&X$X$XXXF._.i.n 8.+.S._._.v.v.l i O.m.T.C.7 O .   ",
"  . O 0 b.g.d i 7.!.^.Q.|.$X$X#X+X@X$X X..p m x z.v.v.v.f.j j x.K.v.9 O     ",
"  . O 0 v.a.d k Q.W.W.Q.W./. XOX#X+XJ.`.f.d @.O.l l.z.z.m.' / 2.y.=.6 O .   ",
"    O 8 b.m u %.9.W.W.W.R.R.R.p.|.oXH.m.v.m.v.c.@.@.v.g.b.=.H K 3.J ; O .   ",
"    O % k.m u 9.W.E.W. XR.p.1.6 I ~.`.S.g.m.v.g.c.v.g.c.n.1.F G Q F # O     ",
"    o @ s.a.i z.!.E.p.E. X^.K.} 2 ,.G.c.g.v.v.v.c.v.v.B.N.K.5.W 9.G + o     ",
"    X O ] m.n g.g.u.2.R E Y.|.|.T.r.d.n.n.S.S.v.m.c.b.L.! A G F Q 2 + .     ",
"    . O r g.v.v.z.2.> % % P 4./._.y.>._.F.S.v.m.v.m.C.V.4.V A A F - o .     ",
"      O @ ] g.v.c.+.P T r.t.t.t.W.Q.e.>.D.F.v.v.m.v.v.b.N.G A ! S + o .     ",
"      X O q z g.v.g.) _ >.w.w.w.q.p.U.O.O.F.F.F.m.m.4.Y Y V V C : O .       ",
"      . O + t m l.l.d.h ` w.q.0.~ :.F.A.f.$.n.F.Z.P.N.,.V V B 2 + O .       ",
"        . O % y f.v.v.c -./ ` 0.7.9.G.S.A.7.^ | m.B.h.E B B 1 $ o . .       ",
"          O O q ] j.m.d / a / ~ O.A.U.G.D.n.<.D n ,.C N B 2 - O X           ",
"          . O O > 3 b h a $.M a j j +.*.&. . .x D B T R < - O O             ",
"              O O $ 2 4 s x.S.{ u u f f.p p h s 4 Z } I $ O O .             ",
"                X O + % w z a.g.v u u #.@.l 1 * < I , + O o .               ",
"                  . O + @ q t [ [ z g & 3 U = = - + O o .                   ",
"                      X O O + @ 5 7 8 6 > @ + + O o X .                     ",
"                          . X O O O o O O O O X .                           ",
"                                    . .           .                         ",
"                                                                            "
};
