/* XPM */
static char *out[] = {
/* columns rows colors chars-per-pixel */
"38 38 99 2 ",
"   c #2A2D33",
".  c #323135",
"X  c #3A3637",
"o  c #3C3738",
"O  c #433228",
"+  c #4A362B",
"@  c #533B2E",
"#  c #4F3D34",
"$  c #473E3C",
"%  c #483F3D",
"&  c #563E31",
"*  c #583F32",
"=  c #4B413E",
"-  c #534239",
";  c #59443A",
":  c #604536",
">  c #624738",
",  c #684B3B",
"<  c #4E4440",
"1  c #554741",
"2  c #5E4E45",
"3  c #614F46",
"4  c #694F40",
"5  c #625147",
"6  c #665349",
"7  c #6A564B",
"8  c #6D584D",
"9  c #745542",
"0  c #795743",
"q  c #775847",
"w  c #7A5945",
"e  c #715B4E",
"r  c #7C5C4A",
"t  c #755E50",
"y  c #785F50",
"u  c #7B6253",
"i  c #825E4A",
"p  c #85624C",
"a  c #8B644E",
"s  c #90664F",
"d  c #846654",
"f  c #8A6652",
"g  c #876855",
"h  c #8C6955",
"j  c #876A5A",
"k  c #8D6B5A",
"l  c #936750",
"z  c #936B53",
"x  c #9C6D55",
"c  c #956E5A",
"v  c #967056",
"b  c #9E7057",
"n  c #94715C",
"m  c #9C745A",
"M  c #9F785C",
"N  c #A06F57",
"B  c #A27157",
"V  c #A4745A",
"C  c #A37A5E",
"Z  c #A9785E",
"A  c #947561",
"S  c #9A7662",
"D  c #9D7963",
"F  c #9E7E69",
"G  c #A47D62",
"H  c #A97D62",
"J  c #A27E68",
"K  c #A68066",
"L  c #AC8265",
"P  c #A5816B",
"I  c #AD856A",
"U  c #AF886C",
"Y  c #B08667",
"T  c #B18769",
"R  c #B48A6C",
"E  c #BA8E6E",
"W  c #A88670",
"Q  c #AD8971",
"!  c #B38D75",
"~  c #BA8F71",
"^  c #BD9273",
"/  c #B69178",
"(  c #BC957B",
")  c #BE987F",
"_  c #C09475",
"`  c #C59778",
"'  c #C59A7B",
"]  c #CA9D7C",
"[  c #CEA17F",
"{  c #C49E83",
"}  c #C7A185",
"|  c #CAA386",
" . c #CCA589",
".. c #D1A484",
"X. c #D2A887",
"o. c #D2A789",
"O. c #D4AB8E",
"+. c #D7AE90",
"@. c #D9B294",
/* pixels */
"                                                                            ",
"                                                                            ",
"                                                                            ",
"                          X 3 6 2 7 j d 8 6 6 3 .                           ",
"                      % 6 y k J J J H H J H S k y 6 %                       ",
"                  o 7 t S { { O.O. .Z Z N c l l x a e 7 $                   ",
"                = e k ! o.O.O.o.J c c c Z V N N l l s q 8 $                 ",
"              = y { { { +.O.O._ H H Z Z V N N l i l l G J y 3               ",
"            % u } | { { { +.O.O.o.n b b B B N x s H R T Y H y %             ",
"          o 8 ) | |  .{ { @.O.O.D f f f i i i s x ~ _ ! R T m y o           ",
"          2 W  .@.@.@.@.@.+.{ ) A c H H h i w w l b b l R T L d 8           ",
"        < j |  .@.+.@.@.+.@.{ ( / J H Z V B l a l l a i K T H G y =         ",
"        6 W {  .| |  .+.+.+.+. .o.o.~ H V B x x l s a z R Y L Y v 6         ",
"      o u ) { ( F ! { +.+.O.+.{ o..._ V V B x x l a p R E L L R Y y X       ",
"      5 S { } Q J J J S k J A k ` o._ V V x b b l C n E E L C C Y g 6       ",
"      2 ) { / A k k k k k k f f j H H V B l m ^ L Y G E E L C C K M 5       ",
"      8 +.{ Q k k k k h h h a g p f p i r 0 a R T R M _ R L C L L K 9       ",
"      6 @.{ k k k k k h h g h g Q H f r w 0 w R T R Y I L C C C C L -       ",
"      A O.! h g P / / | M d v E _ _ T i w w 0 T I I L C C C C v r L u       ",
"      A { ! h g P } X.X.K d ^ ^ ` { ] ! K R K m I L L L C C C s , K r       ",
"      6 { g f c ( M R G a L ] ] ` ` ' ' D R U m m L L L C C C > f v 5       ",
"      6 ( e h Q ..T Z G L B E [ ] ' ] _ G _ ^ _ L L L K L L C v M r 6       ",
"      1 Q m Y [ ..R Z V L B L ' _ R ~ _ R R ^ R Y Y L K L L K M m ; 5       ",
"      1 J m ` [ ..T x i w w w z R T R T ^ ~ ^ T Y L V K V C , C v ; 2       ",
"        y ' Q _ ^ a w w 9 w 9 9 w Y Y Y L L L L L M v K w * * v , 7         ",
"        2 / ] _ E K w w w 9 9 4 K E E Y L L L L K K K z & @ & & ; 7         ",
"        o d ] ` ' R K r r v K a E E E E Y L L L x v 0 @ @ @ @ & 8 =         ",
"          6 J ] ' K K E Y Y K K E E E E Y L L L 0 @ + @ @ @ & : 6           ",
"          . y G E E ^ Y Y L L E E E E Y L K w @ O O + @ @ : p 9 .           ",
"            % 8 u L L Y Y Y L w K L L L K a O O O + @ 4 L z 7 -             ",
"              < e w , v L L L p : : : L K + O O O @ 9 K h 7 -               ",
"                $ w , , K L L L 0 v v v a K a O O O 9 9 t =                 ",
"                  . 6 8 ; w i z C C v v v b w O + # 8 8                     ",
"                      % 7 e - # i M C C C C , - 7 7 <                       ",
"                            5 2 6 1 e u 3 7 5 5                             ",
"                                                                            ",
"                                                                            ",
"                                                                            "
};
