/* XPM */
static char *out[] = {
/* columns rows colors chars-per-pixel */
"38 38 158 2 ",
"   c #2A2D33",
".  c #2E2E3A",
"X  c #332F43",
"o  c #333144",
"O  c #3A3250",
"+  c #3F3459",
"@  c #42345D",
"#  c #462D6D",
"$  c #4C386D",
"%  c #492F73",
"&  c #4B3076",
"*  c #4D317A",
"=  c #50337E",
"-  c #553C7C",
";  c #533583",
":  c #573B83",
">  c #583C84",
",  c #573789",
"<  c #58378B",
"1  c #5A398D",
"2  c #5D3B93",
"3  c #613D96",
"4  c #633E9A",
"5  c #5E418D",
"6  c #60458C",
"7  c #644496",
"8  c #664896",
"9  c #66419D",
"0  c #6A459C",
"q  c #6A4A9B",
"w  c #6E5495",
"e  c #725A95",
"r  c #78619A",
"t  c #6741A0",
"y  c #6B44A2",
"u  c #6D4BA4",
"i  c #6E45AA",
"p  c #6D48A8",
"a  c #704AA5",
"s  c #7046AB",
"d  c #7349AD",
"f  c #7355A0",
"g  c #7859A1",
"h  c #7B50AC",
"j  c #7D5CAE",
"k  c #7147B1",
"l  c #754AB3",
"z  c #794CB5",
"x  c #764ABA",
"c  c #7C4DBC",
"v  c #7750B2",
"b  c #7D54B5",
"n  c #7F52BB",
"m  c #7E67A1",
"M  c #7C4EC3",
"N  c #7F50C4",
"B  c #7F50CA",
"V  c #8154BD",
"C  c #855BB8",
"Z  c #845CBD",
"A  c #8167A7",
"S  c #8269A7",
"D  c #8464AE",
"F  c #8566B3",
"G  c #876BB0",
"H  c #8B6EB5",
"J  c #8763BB",
"K  c #8D6BBD",
"L  c #8D71B6",
"P  c #9170BD",
"I  c #977CBE",
"U  c #8553C5",
"Y  c #8956C7",
"T  c #8659C2",
"R  c #8A5AC6",
"E  c #8453CB",
"W  c #8A55CC",
"Q  c #875AC8",
"!  c #8C5CCA",
"~  c #905ECF",
"^  c #8554D2",
"/  c #8B57D3",
"(  c #8E58D3",
")  c #8B57D9",
"_  c #8E59DC",
"`  c #915BD6",
"'  c #955CDC",
"]  c #8E67C5",
"[  c #8D69C0",
"{  c #8F64CA",
"}  c #936CC3",
"|  c #9164CC",
" . c #9866C8",
".. c #946CCC",
"X. c #9473C1",
"o. c #9D76C2",
"O. c #9978C6",
"+. c #9671CA",
"@. c #9A76CA",
"#. c #9E7BCC",
"$. c #9363D3",
"%. c #9C67D7",
"&. c #9D64DF",
"*. c #9C76D1",
"=. c #9F78D4",
"-. c #A56FCD",
";. c #A37ECE",
":. c #A169DD",
">. c #A376D5",
",. c #A976D8",
"<. c #B275DE",
"1. c #8E59E0",
"2. c #955DE2",
"3. c #985FE1",
"4. c #965EEA",
"5. c #985FE8",
"6. c #9D62E5",
"7. c #9E62E8",
"8. c #9B61F1",
"9. c #A86CE3",
"0. c #A164EA",
"q. c #A368E9",
"w. c #AF70E3",
"e. c #B273E4",
"r. c #B87BE1",
"t. c #9E84C5",
"y. c #A58FC7",
"u. c #A68BCD",
"i. c #A88ACD",
"p. c #AC93CF",
"a. c #A582D2",
"s. c #AD83DC",
"d. c #BA8BDA",
"f. c #AD91D9",
"g. c #B197D9",
"h. c #BDAAD1",
"j. c #B589E2",
"k. c #C99DDF",
"l. c #C2A2D6",
"z. c #C4B7DA",
"x. c #C8BCDA",
"c. c #C08FE6",
"v. c #C684E8",
"b. c #C691E1",
"n. c #CD9BEA",
"m. c #D49EED",
"M. c #D7ABE7",
"N. c #D6A6EC",
"B. c #C8B6E4",
"V. c #DAB1ED",
"C. c #DFA8F2",
"Z. c #CFC4DC",
"A. c #D4C4E1",
"S. c #D4C7E6",
"D. c #D9C1E7",
"F. c #DECBE9",
"G. c #DDD4EC",
"H. c #EDE8F3",
/* pixels */
"                                                                            ",
"                                                                            ",
"                                                                            ",
"                          . 5 q z Z | | Z z y - .                           ",
"                      + y { O.u.t.I X.O.n.n.c.,.R a @                       ",
"                  X 0 ..g.y.I J j b V v C } } X.K K R 0 X                   ",
"                + T f.z.u.F d y h T ` R 1 1 1 8 u f A [ U @                 ",
"              $ { g.A.D.T d 4 3 2 2 1 ; * * & 1 ` &.%.P X.R $               ",
"            + { x.Z.F.C.w.l 4 1 t t y t y 4 < < 3 z Y ~ @.;.Y @             ",
"          X T G.G.h.n.r.9.4 3 3 W U W W ( 3.` l = = ; 1 a g P V o           ",
"          0 B.G.O.j 0 1 1 3 V c V i & ; z 2.5./ 0 2 2 2 3 6 D >.y           ",
"        $ @.H.A.+.p 2 * ; 1 E ) V t & ; 2 4 4 3 * * * * 0 d %.j.| @         ",
"        a z.Z.V.r.! l ; , 1 1 y 2 & & * ; 1 1 3 3 1 < , , 4 a ,.s.y         ",
"      o ..S.l.C h 0 < * & < 3 3 ; ; ; * * * * ; ; < 1 3 3 d d q L R X       ",
"      - a.A.b.M l s 0 y U ` ' ` / 2 < 2 1 ; * * * * * 1 3 ' q.~ j ] -       ",
"      y u.V.v. .R U l d V / ( / ' E i 2 3 s d d s s 3 < 3 0 l V  .H u       ",
"      c p.m.e.R Y ( ( W N U ( ( / U c z c W W W W ( c 2 2 2 4 4 b L n       ",
"      J i.v.w.` 7.7.3.' ' 3.3.7.0.7.3./ W ` ( W U U W ' ` U U z a G C       ",
"      | k.-.V ` ' s ; & 3 z n / ` ' ` ` ` U c z s k s W ` ` 7.6.d #.!       ",
"      ..M.-.n z c 1 * * i d z ( z t = i W W W W Y U Y c c c Y W :.j.{       ",
"      Z N.<.q.7./ l ; = k t p k c z i * * ; < < c W ` W c c W 0.9.s.V       ",
"      z N. .R c 1 * & & & * < 2 < ; y c 2 ; ; ; c W ( W Y 4 3 Y %.;.b       ",
"      0 d.D 2 & * & & * * < 1 1 t c c t * , , , < s s y < 2 d ' ,.*.0       ",
"      - >.o.: ; 2 4 9 d x c k k x i x 4 < ; 2 s c z s 2 2 c `  .K [ -       ",
"        ! ;.! z / ^ E ^ ^ E B M k M N E _ ) B k s z s x c c 4 4 S Y         ",
"        y X.g d E ) 2.8.4.8.4.^ B _ M c c k < 2 x ( 5._ 3 * = C P y         ",
"        O ! H 8 9 M ) M c x x M c 1 , , , , , 2 / _ _ k > 3 3 H ~ O         ",
"          0 J e : * B 1.M i 1 % # % # # * 2 i M ^ x x ; , - A C q           ",
"          . n X.w - 1 E ^ M x * # # # # * p B B E B i , 3 e D V             ",
"            + T @.w u p M k 7 ; ; * * * * < N k x y = > K H V @             ",
"              @ Q =.*.Q N M 2 & % % * p x k y t i > > K -.V @               ",
"                + n ] r w 7 7 * * * 7 x N n x z b J O.-.V @                 ",
"                  . 0 R ..O.K Z R Q Q / ! $...J O.+.! 0 .                   ",
"                      O u Q } K H H L O.G m D J Y y O                       ",
"                            - 0 z n T Z V b 0 -                             ",
"                                                                            ",
"                                                                            ",
"                                                                            "
};
