/* XPM */
static char *out[] = {
/* columns rows colors chars-per-pixel */
"38 38 214 2 ",
"   c #2A2D33",
".  c #322F33",
"X  c #5C290C",
"o  c #652C0B",
"O  c #6B2F0E",
"+  c #6F300C",
"@  c #74330D",
"#  c #7C360C",
"$  c #612C11",
"%  c #663318",
"&  c #763718",
"*  c #423333",
"=  c #4B3533",
"-  c #523733",
";  c #693425",
":  c #763C26",
">  c #7A332B",
",  c #683E33",
"<  c #793731",
"1  c #6C4032",
"2  c #764434",
"3  c #7D4632",
"4  c #82370C",
"5  c #85390D",
"6  c #8B3B0D",
"7  c #933E0D",
"8  c #833A11",
"9  c #8C3E13",
"0  c #883C1B",
"q  c #86392A",
"w  c #822631",
"e  c #832B35",
"r  c #892C37",
"t  c #832F39",
"y  c #922E3A",
"u  c #992F3B",
"i  c #843433",
"p  c #8B3C35",
"a  c #85343B",
"s  c #883639",
"d  c #8D3C3C",
"f  c #923D30",
"g  c #9A313D",
"h  c #96400E",
"j  c #9C410D",
"k  c #8B411C",
"l  c #994416",
"z  c #91451C",
"x  c #A4450F",
"c  c #A8460E",
"v  c #A34612",
"b  c #A84B16",
"n  c #AB4E1A",
"m  c #B34D13",
"M  c #BA4F11",
"N  c #B75319",
"B  c #8B4623",
"V  c #8E442B",
"C  c #964A29",
"Z  c #97532E",
"A  c #854A32",
"S  c #8A4C32",
"D  c #87423A",
"F  c #9C4634",
"G  c #9C4C35",
"H  c #96473A",
"J  c #965132",
"K  c #9B5839",
"L  c #A14B25",
"P  c #AD582A",
"I  c #B85A25",
"U  c #A4473B",
"Y  c #A24B3D",
"T  c #A65A37",
"R  c #AE5C32",
"E  c #B05734",
"W  c #B45D31",
"Q  c #B85F31",
"!  c #BC622D",
"~  c #AC623B",
"^  c #BA6031",
"/  c #B6673B",
"(  c #CA5816",
")  c #D65B15",
"_  c #DF651D",
"`  c #C35C21",
"'  c #C4593D",
"]  c #C8642A",
"[  c #DC6623",
"{  c #DF6A24",
"}  c #D9632C",
"|  c #DF6D2B",
" . c #CB6831",
".. c #C26B3D",
"X. c #CA6E3C",
"o. c #D66D31",
"O. c #D56836",
"+. c #DB6F30",
"@. c #CE723F",
"#. c #D67037",
"$. c #DF7131",
"%. c #D4723B",
"&. c #DD763B",
"*. c #E06B27",
"=. c #E06E2C",
"-. c #E0702F",
";. c #E07435",
":. c #E07638",
">. c #E0793E",
",. c #883942",
"<. c #933B42",
"1. c #993944",
"2. c #9E3A45",
"3. c #A63B45",
"4. c #AB3946",
"5. c #AB3D49",
"6. c #B03442",
"7. c #B23946",
"8. c #B23C49",
"9. c #8D4347",
"0. c #8B424A",
"q. c #93434C",
"w. c #984648",
"e. c #895740",
"r. c #9A5544",
"t. c #9B4B54",
"y. c #965959",
"u. c #9C5D59",
"i. c #A74748",
"p. c #AB444B",
"a. c #BA4947",
"s. c #B3434E",
"d. c #B64B4B",
"f. c #BA4D4A",
"g. c #A25B47",
"h. c #BB534D",
"j. c #B95B4D",
"k. c #A24A54",
"l. c #AA4952",
"z. c #B44652",
"x. c #B44B55",
"c. c #B54E59",
"v. c #AC555A",
"b. c #B75655",
"n. c #B5525D",
"m. c #96644A",
"M. c #956A58",
"N. c #AC6544",
"B. c #A46648",
"V. c #AA654A",
"C. c #AC6B4B",
"Z. c #B26E4B",
"A. c #BA6A48",
"S. c #BD724D",
"D. c #A66456",
"F. c #AB6B51",
"G. c #AF7356",
"H. c #B97657",
"J. c #995D62",
"K. c #AA5B62",
"L. c #B75963",
"P. c #B85963",
"I. c #BA5A64",
"U. c #9F756A",
"Y. c #A76C67",
"T. c #BA6869",
"R. c #A77666",
"E. c #B77A67",
"W. c #B56C70",
"Q. c #AA7D73",
"!. c #A97A78",
"~. c #BA7B74",
"^. c #BC7C7B",
"/. c #C45644",
"(. c #C55945",
"). c #CA5D44",
"_. c #C25D4C",
"`. c #C26D43",
"'. c #CA664C",
"]. c #C96849",
"[. c #D46C45",
"{. c #D16D4D",
"}. c #CA7345",
"|. c #CA7547",
" X c #C4744A",
".X c #D37642",
"XX c #DA7545",
"oX c #DD7E46",
"OX c #D57749",
"+X c #D47E4B",
"@X c #C66955",
"#X c #C87C56",
"$X c #E17E44",
"%X c #C16A6E",
"&X c #C67876",
"*X c #B18269",
"=X c #AC8378",
"-X c #BD8679",
";X c #DD824D",
":X c #DC8453",
">X c #D6865A",
",X c #E2814A",
"<X c #E48959",
"1X c #C78866",
"2X c #D98D64",
"3X c #D99169",
"4X c #C68674",
"5X c #C58C76",
"6X c #D08F7C",
"7X c #D79672",
"8X c #E29269",
"9X c #C47F83",
"0X c #BD8480",
"qX c #C38383",
/* pixels */
"                                  . = = .                                   ",
"                        * S Q  .$.$.$.$.=.;. .W S *                         ",
"                    1 ! +.-.$.;.&.$.;.:.#.o.;.-.;.| Q ,                     ",
"                - ^ $.$.;.>.<X3X3X2X1X1X6X6X4X#X&.;.$.$.Q -                 ",
"              A +.$.$.;X8X7X1X:X;X;XoXOX@X@X%X&X:X,X.X$.;.| A               ",
"            J $.;.@.8X7X>X;X;X,X].j.'._.:.$.=.*.| ;.}..X&.-.$.J             ",
"          J -.$. X-XE.F.;X;X,X%..X}.X.XX=.*.[ _ ).(.'.A.>X`.#.-.J           ",
"        A | o.1X-Xy.0.r./ ;X,X@.X.oX&.:.=.{ _ _ ).8.z.n.T.-XF.$.$.A         ",
"      - +.$.U.=Xy.s 0.a D }.oX,Xj.7.7.7.f.).' O._ } ' /.x.K.G.F.$.$.-       ",
"      ^ +.H.=XD.D.r.K r.N..X,X@Xz.d._.'.8.x.c.7.O.) M ) ` P S M.A.$.^       ",
"    2 +.O.=XJ.V.~ ~ T T +X+Xp.8.8.@X;.$.%./.x.7.' ( j 7 7 z B y.U.O.$.2     ",
"    ^ $.E.!.0.Z.N.~ ~ ~ A./ j.8.d.].;.=.{ *.| { m c c 7 0 < 9.0.!.V.$.Q     ",
"  = $.%.Q.y.D.t t s r.T ~ ;X$X}..X:.;.` N { ( ) ( j h h 7 0 & : y.U.o.$.-   ",
"  J $.S.!.,.B.N.B.S.+X+X X`.@X'.XX;.I I n [ m m ) j h h 6 0 i < : m.%.$.S   ",
"  Q $.H.Y.,.V.V.S.j.@Xd.8.c.P.7.j.&. .=.n v v c x x h h 6 q s ,.3 e.|.$.^   ",
"   .o.*Xu.a e <.n.z.6.6.6.6.6.6.z.'.[.&.R Y D i e e i h 5 # > > < r.S.:. .  ",
"  $.&.1Xu.e w t t.n.x.z.s.8.8.6.u u 7.5.y 3.r w 4.5.y 0 8 @ o O & g.Z.:.-.  ",
". $.&.5XD.,.w s c.c.s.s.8.s.z.c.n.v.c.z.e e e w w w > t s i > > C B m.:.-.. ",
"- $.>.5X0.e w 3.7.'.OXOX@X6.8.x.x.p.1.1.e e e w w w w w > u r w.i.Z R.@.$.- ",
"= $./ qX0.e r u j..X:.XXs.6.6.z.{.].C F s i e e w e e e w 6.3.z.s.b.qX`.$.= ",
"  -...-X<.,.k.c.s.XX$.{.h.'.[.'._.h.F j c x j l V e t e e 5.c.L.c.c.qX..-.  ",
"  +.%.=X9.a d ].&.;.;.$.=.{ [ _ _ [ P L v 7 7 7 q t a r 5.i.F U s.I.^.%.$.  ",
"   .&.Q.u.r.T ^ ] =.| | *.*._ _ [ /.r r 7 7 7 7 0 q a w.F 6 8 Y d.W.*X+. .  ",
"  R | 1XY.R P n ` =.[.f./.(././.a.6.2.C m 7 7 q q i H V 9 C U 8.l.T.+X$.R   ",
"  A $.}.-Xr.H G H f.6.s.c.c.z.7.6.4.8.p.s q p i a t w t p.6.p.Y C C.&.$.S   ",
"  * | ;.#XC.,.r e 2.n.L.L.L.c.6.6.x.v.y e < q # & < <.3.p.C k 6 J  X;.+..   ",
"    W $.&. XR G s r q.t.L.L.z.6.s.' n k k 4 7 8 a k.n.z.F 4 6 z E. X| W .   ",
"    , $.&.;XA.n b f ,.,.p.8.s.' L x 6 4 # @ O % ,.6.6.Y 5 4 k K |.#.$.,     ",
"      Q $.&.>X^ v v p l.1.t E ( h M b 6 & w.4.7.r y 7.V 4 6 Z Z.&.;.W       ",
"      - #.-.S.5XQ C H a r > i.L 4 5 7 + o : p.g e 3.i.8 z g.C.&.$.o.-       ",
"        3 $.$.F.4XZ.<.t a V 6 # # + + $ ; q H r 4.i.8 k D.~.@.$.$.3         ",
"          J $.$.F.0X&Xb.k.<.: + o X X < w t s g 3.v.J Y.qXS.$.$.J           ",
"            J +.;...#XC.r.3 : ; ; ; < a a t.L.P.L.I.9X!.`.$.$.J             ",
"              3 o.$.;. X=X-XW.K.t.q.0.q.t.v.T.E.~.~.Z.&.| o.3               ",
"                - Q +.+.#.A.H.E.~.~.&XqXQ.G.S..XXX#.;.$.W -                 ",
"                    , Q | $.$.&.$.XXX./ %.$.;.-.$.+.W ,                     ",
"                        . S R  .| $.$.$.$.+. .R S *                         ",
"                        .           = =                                     "
};
