/* XPM */
static char *out[] = {
/* columns rows colors chars-per-pixel */
"38 38 138 2 ",
"   c #2A2D33",
".  c #2E3037",
"X  c #2F3238",
"o  c #303239",
"O  c #3C3C3C",
"+  c #3F403D",
"@  c #373840",
"#  c #3C3C45",
"$  c #3F3E48",
"%  c #403F45",
"&  c #413E4C",
"*  c #3E4144",
"=  c #3B4149",
"-  c #3F4752",
";  c #34465B",
":  c #38475A",
">  c #36495E",
",  c #3C4A5C",
"<  c #374B61",
"1  c #3B4E63",
"2  c #3E5166",
"3  c #3D546C",
"4  c #3F5770",
"5  c #434445",
"6  c #43434C",
"7  c #46494B",
"8  c #4B4A4B",
"9  c #51524D",
"0  c #454353",
"q  c #494755",
"w  c #454A55",
"e  c #4A4A55",
"r  c #46455B",
"t  c #4B475E",
"y  c #434C5C",
"u  c #4D4C5B",
"i  c #514F5A",
"p  c #4E5153",
"a  c #46515F",
"s  c #4D515B",
"d  c #525253",
"f  c #595A55",
"g  c #53535D",
"h  c #58565D",
"j  c #5A5A5E",
"k  c #4A4562",
"l  c #444E63",
"z  c #4C4C62",
"x  c #4F4968",
"c  c #514D66",
"v  c #514E69",
"b  c #445265",
"n  c #4B5364",
"m  c #43556C",
"M  c #4B536C",
"N  c #4D596C",
"B  c #535463",
"V  c #585763",
"C  c #555964",
"Z  c #5B5B64",
"A  c #545369",
"S  c #59556C",
"D  c #545A6A",
"F  c #5C5B6C",
"G  c #405771",
"H  c #4B5771",
"J  c #445A73",
"K  c #4C5C73",
"L  c #445C78",
"P  c #5B5672",
"I  c #545A74",
"U  c #5D5C74",
"Y  c #5E5D79",
"T  c #605F65",
"R  c #615F6B",
"E  c #615E72",
"W  c #5F6067",
"Q  c #57616D",
"!  c #5D626D",
"~  c #5D6373",
"^  c #556179",
"/  c #5C667C",
"(  c #5E6A7A",
")  c #616167",
"_  c #64636B",
"`  c #68676F",
"'  c #666A6F",
"]  c #69686F",
"[  c #646474",
"{  c #696674",
"}  c #656974",
"|  c #6C6B74",
" . c #63647A",
".. c #69657B",
"X. c #646B7B",
"o. c #6C6B7B",
"O. c #706D76",
"+. c #716F7B",
"@. c #6D7177",
"#. c #6D727B",
"$. c #707377",
"%. c #74747C",
"&. c #77797C",
"*. c #7C7C7E",
"=. c #606784",
"-. c #666D82",
";. c #6D6E84",
":. c #726E82",
">. c #637184",
",. c #6D7382",
"<. c #6E7887",
"1. c #69788E",
"2. c #747482",
"3. c #787682",
"4. c #737A83",
"5. c #7C7C83",
"6. c #76748A",
"7. c #797689",
"8. c #747D89",
"9. c #7E7D89",
"0. c #637893",
"q. c #807F8C",
"w. c #817E94",
"e. c #7D828B",
"r. c #828284",
"t. c #83858C",
"y. c #87898C",
"u. c #898A8C",
"i. c #848493",
"p. c #838992",
"a. c #8C8D92",
"s. c #858199",
"d. c #87889A",
"f. c #8B8C9B",
"g. c #8F9196",
"h. c #929395",
"j. c #93959B",
"k. c #9A9A9B",
/* pixels */
"                                                                            ",
"                                  .                                         ",
"                          . . o X X X o o o o X                             ",
"                      . o o o 6 e Z F V V e 0 o o o o                       ",
"                  . X X # R +.2.7.7.;. .I X.....A & X o                     ",
"                . . # _ &.3.2.i.s.s.w.X.2 ;.:. .U E F @ o o                 ",
"              . X g &.,.p.q.e.p.i.X.U ~ < 1 D n F S P U u o o               ",
"            X X g 5.t.p.e.j.e.e.d.J o.o.N n > K -.K / I U V o X             ",
"          X X C t.g.4.e.j.h.h.e./ -.s.2.7.o.o.F A D 3 ^ I Y w o X           ",
"        . o g %.r.h.h.k.*.C &.4.X.3.[ o.:.o.~ l y A U m m M I e X .         ",
"        X # %.&.*.*.4.k.u.! &.*.~ %.o.o.{ B 2 V F , M F H m M Y @ X         ",
"        X ` y.@.*.*.*.r.e.r.' ! 1 } ,.U E R , n R F l S D c m M F X .       ",
"      o # t.e.y.r.&.! r.u.y.4 Q b ~ | D D 7.6.6.L D F E P b l J  .$ X       ",
"    . o ` 8.k.h.r.r.*.W > 1 $.*.*.3.|  .< o./ =.K I ..F S x r v K B o .     ",
"    . @ r.e.j.k.u.r.*.&.@.2 a.u.*.+.o.~ 2 g M K [ 4 U A x x k k M  .O X     ",
"    X 6 e.y.j.g.*.*.*.*.*.$.r.r.&.%.o.{ _ A > < ~ 3 U S z m x x v Y $ X .   ",
"    o 8 <.t.g.e.h.#.D *.$.*.*.*.3.7.| { 0 y B 2 N F F v v v v v I =.6 o     ",
"    o ' j.k.j.K ( m *.} &.*.*.3.[ [ { F 6 V 2.o.{ F E S S v k r z U c X     ",
"    o ] e.y.a.#.N ' 5.b @.*.5.&.;.+.2._ W 2.{ g E E F v u t t z z A F o     ",
"    o } e.t.a.h.u.u.r.%.&.&.D | :.+.2.{ { F ` F D A i t 0 & 0 l z A V o     ",
"  . o h j.d.i.3.,.p.q.%.#.| [ } | { D ` R Z Z Z g g l 1 z 0 & 0 r U u o     ",
"    X 6 f.t.9.9.5.i.%.O.} #.,.I &.O.] ) R T F Z F J n H l $ t y w  .6 o     ",
"    X # d.3.3.3.3.%.| +.@.,.m 4 o.| _ n l n Z V Z D u 0 & 0 y l y  .= .     ",
"    o o 9.&.3.%.| n | | { @.K J b ! F n Z Z g g 1 w & & & & w < l [ o .     ",
"  . . X _ i.9.3.5.%.{ | W { D m W W Z h Z Z Z Z M 0 0 6 # , q > V B X .     ",
"      X # a.4.5.K | ' _ _ ) _ _ Z C C h g h b b a n 2 2 q w , 6 F $ X       ",
"      . o F 5.&.~ N _ _ ) ) W j j Z N m 2 ; : y > , w g a s w g g o .       ",
"        o $ 2.%.! ] ` ! W _ ) Z g C K L 3 1 : * % 5 u G G 4 N  .# .         ",
"        X X e 3._ Z Z ) j h C d b , 2 < > > : - y , 2 3 m K 1.e . .         ",
"          X X B &.D h d d g p e s p 8 w ; - O O : : 1 > n 0.C o .           ",
"            X o h X.j d p 8 p C 9 7 5 5 > O O = - + s N 1.g o o             ",
"            . X o q ` ) 8 8 p n 5 y 7 O * + + + w 7 W #.w o . .             ",
"                  . # Z _ ! p b 7 5 + O O O + d } } ) * . .                 ",
"                  . X X = h Z ' >.( f f 8 f j | W 7 o o .                   ",
"                      . X X O # e h D B g 6 6 o o o .                       ",
"                            . X o o o X X X . . .                           ",
"                                                                            ",
"                                                                            "
};
