/* XPM */
static char *out[] = {
/* columns rows colors chars-per-pixel */
"32 32 209 2 ",
"   c #2A2D34",
".  c #2B3037",
"X  c #2C323B",
"o  c #2E3743",
"O  c #2F3945",
"+  c #2F3D4E",
"@  c #313C46",
"#  c #323D49",
"$  c #2F3F50",
"%  c #35414D",
"&  c #2F455D",
"*  c #344252",
"=  c #384852",
"-  c #3B4B57",
";  c #33465B",
":  c #3C4B5B",
">  c #39555C",
",  c #2E4967",
"<  c #344D65",
"1  c #365363",
"2  c #255770",
"3  c #2D5275",
"4  c #375776",
"5  c #3B5A70",
"6  c #366C78",
"7  c #3B7D7D",
"8  c #44565E",
"9  c #425865",
"0  c #4C5D66",
"q  c #495D6D",
"w  c #466066",
"e  c #4A6369",
"r  c #526C6E",
"t  c #4C736E",
"y  c #466E74",
"u  c #44637C",
"i  c #556B75",
"p  c #4D7F71",
"a  c #597A77",
"s  c #5C7679",
"d  c #62757B",
"f  c #63797B",
"g  c #3E865E",
"h  c #3D8177",
"j  c #468C68",
"k  c #45926C",
"l  c #4B916B",
"z  c #51936D",
"x  c #4D8779",
"c  c #588177",
"v  c #598A7B",
"b  c #4C9A79",
"n  c #569371",
"m  c #5C9674",
"M  c #559A76",
"N  c #5F9977",
"B  c #569A7C",
"V  c #63867F",
"C  c #67977E",
"Z  c #659C7C",
"A  c #1E5889",
"S  c #265885",
"D  c #315D88",
"F  c #2E608D",
"G  c #376187",
"H  c #2D6294",
"J  c #346694",
"K  c #397797",
"L  c #446584",
"P  c #4A6B8A",
"I  c #556F84",
"U  c #58738C",
"Y  c #436D96",
"T  c #44739F",
"R  c #4C749C",
"E  c #527798",
"W  c #677988",
"Q  c #677C91",
"!  c #4B78A3",
"~  c #4E868A",
"^  c #4B938A",
"/  c #599C87",
"(  c #5B819F",
")  c #4B9497",
"_  c #5C9D95",
"`  c #688984",
"'  c #6D9E83",
"]  c #69978B",
"[  c #72918D",
"{  c #64899C",
"}  c #689C96",
"|  c #779895",
" . c #779C95",
".. c #5DA096",
"X. c #66A286",
"o. c #6CA484",
"O. c #6BA48E",
"+. c #70A385",
"@. c #73A58B",
"#. c #7CA48E",
"$. c #73A98C",
"%. c #7AA98E",
"&. c #66A297",
"*. c #6BA39D",
"=. c #7CA593",
"-. c #7DAB92",
";. c #74A99B",
":. c #79A899",
">. c #7EB296",
",. c #5883A9",
"<. c #5A83AC",
"1. c #4F96A0",
"2. c #4B92AF",
"3. c #4A8CB7",
"4. c #5A98B9",
"5. c #6589A9",
"6. c #6B8DAD",
"7. c #6996AB",
"8. c #7695AE",
"9. c #7A9CA8",
"0. c #669CB7",
"q. c #7899B5",
"w. c #67A3A8",
"e. c #7CABA5",
"r. c #77A8A9",
"t. c #75A5B7",
"y. c #7CADB3",
"u. c #7CACBA",
"i. c #498DC4",
"p. c #5893C6",
"a. c #5D96CA",
"s. c #6A9BC4",
"d. c #659ACA",
"f. c #6B9ECC",
"g. c #6CA1C3",
"h. c #6DA1CD",
"j. c #7AA2C4",
"k. c #7AABC1",
"l. c #73A3CC",
"z. c #7CAACC",
"x. c #75A6D0",
"c. c #7AA7D0",
"v. c #7FABD2",
"b. c #82A397",
"n. c #82AD94",
"m. c #88AF9A",
"M. c #83B097",
"N. c #85B29A",
"B. c #8CB49D",
"V. c #889DAC",
"C. c #86AFA5",
"Z. c #8AACA2",
"A. c #85ACA9",
"S. c #85B2A3",
"D. c #8EB6A2",
"F. c #8EB8A1",
"G. c #84B2AB",
"H. c #8BB0AF",
"J. c #90B7A1",
"K. c #92BAA4",
"L. c #94BCAB",
"P. c #9ABFAE",
"I. c #89ADB4",
"U. c #83ADB8",
"Y. c #92AAB0",
"T. c #8CB9B3",
"R. c #8DB4B9",
"E. c #94B5B6",
"W. c #93BAB1",
"Q. c #9ABDB5",
"!. c #94BBBC",
"~. c #95C0AC",
"^. c #9AC1AC",
"/. c #9CC2B3",
"(. c #9DC2BB",
"). c #A2C4BC",
"_. c #81A7C9",
"`. c #90ADC8",
"'. c #86B1C2",
"]. c #8EB6C4",
"[. c #86B1CC",
"{. c #8DB5CC",
"}. c #93B9C7",
"|. c #95B9CC",
" X c #83ADD3",
".X c #88AFD3",
"XX c #87B1D4",
"oX c #8BB3D5",
"OX c #92B6D6",
"+X c #97BAD4",
"@X c #9CBCD3",
"#X c #93B7D8",
"$X c #97BAD8",
"%X c #9CBCD9",
"&X c #A1BFDA",
"*X c #9EC0C3",
"=X c #9FC0D5",
"-X c #A2C4C3",
";X c #A3C3CA",
":X c #A2C1D3",
">X c #ADC8D5",
",X c #A4C1DB",
"<X c #AAC5DC",
"1X c #B4CCD5",
"2X c #B3CADE",
"3X c #BACFDF",
"4X c #B7CCE0",
"5X c #BACEE1",
"6X c #BED1E1",
/* pixels */
"                  . o : i W Q Q U P u 5 - o . . .               ",
"              . * q I ( 8.`.`._.j.j.q.5.E L q $ X .             ",
"        . X # 0 W 8.z.v.oXoX.Xv.XX&X,XXXf.s.6.U 9 # X           ",
"        X % i V.@X+XoXXXoXoX.X X X%X<X%Xc.a.d.j.Q L + X         ",
"    . X # W Y.).*X].XX#XoX#X%X%X XXX&X,XoXd.p.p.p.! L *   .     ",
"    . % W Y.Q.P.F.e.U.=X<X%X%X,X$XXXXXXXOX Xf.d.p.3.,.i # .     ",
"  . @ e [ K.P.J.B.;.r.:X4X2X%X$X<X%X#Xv.v.OXoX.Xx.4.7.9.i #     ",
". X : v %.J.J.J.F.F.e.|.<X<X%XoX<X4X<X#X X#X:X|.{.u.9.e.[ 8 o   ",
". % t ] N.J.J.J.L.).;X|.%X<X%XoX%X<X2X<X=X@X*XS.H.T.:.$.C.s *   ",
"X 0 ] %.n.n.m.J.^.^.(.R.{.,X<XoX XoX=X<X:X*X(.$.o.-.B.B.D.| q X ",
"# r =.m.Z l N -.^.^.;X@XOX%X=X{.t.w.u.{.;X;XP.$.M o.B.B.J.D.s @ ",
": s -.D.-.@.;.E.>X1X1X<X%X#XoXu.w...w.r.T.*X^.N.n Z M.J.J.L.` : ",
"9 ` m.J.N.Q.;X>X3X3X3X5X2X%XXXk.k._ b X.N.~.L.F.Z n %.J.J.K.| 0 ",
"r =.J.N.+.E.>X2X3X6X6X6X6X>X|.XXz...^ O.N.T.Q.K.n.z N N.K.W.b.i ",
"f Z.N.o.l *.].,X2X3X6X6X6X1X;X%X'.w.&.;.>.*X!.K.M.Z l +.K.}.A.s ",
"f Z.m.l k r.{.#X$X<X3X4X4X3X1X2X=XO.M B o.B.K.J.J.n.M B G.U.r.s ",
"s Z.%.l / u.oXoXoXoX$X,X<X2X1X).(.M.Z o.%.Z N.J.J.C.*.^ 7.0.<.u ",
"d b.' l *.[.oXoX#X X.X.XoX,X1X).~.J.B.B.N.%.n.J.J.C.7.K ! ,.T 4 ",
"i | o.l y.[.XXoX#XOXv.x.x. X@X-XL.K.K.K.J.B.N.B.D.H.8.! ! <.Y , ",
"0 [ -.M e.R.v.v.oX#XOXoX.Xx.z.!.K.J.J.K.K.J.J.J.H.q.6.<.! <.P & ",
"8 V m.' B.G.k.x.x. X#X%X%X.Xl.u.L.L.F.K.~.J.K.W.I.5.R ! H ! u * ",
"@ i b.J.F.B.y.h.h.f.h..XOXOXz.g.R./.~.~.L.K.K.W.R.8.J H H H , O ",
"X 8 V m.J.B.e.0.g.a.a.a.h. XXXg.t.~.~.K.K.L.K.D.I.8.R J R G ; X ",
"  % e C N.F.S.w.4.p.p.i.i.a.l.[.;.>.~./.^.P.W.V.,.Y J S D < # X ",
"  X = r ' B.B.-._ 1.i.i.i.3.w.T.F.N.M.N.L.Q.E.t.Q J A S , $ X   ",
"  . @ 8 c b.J.M.X.) ) 2.3.w.y.R.~.L.>.}  .C.I.9.E F S 3 , o .   ",
"    . @ w ` =.%./ ) b ^ ) w.G.U.T.L.A.5.~ } { E J S 4 < O X     ",
"    . X % 5 a m k k X.] b g M $.N.>. .} b 7 G P P 4 < O X       ",
"        X O 1 5 6 x >.D.+.g g z %.m j h p G G U i < o .         ",
"          . o * 1 y ` =.#.N g g Z Z l 6 2 3 u 9 : O .           ",
"            . X # - 0 d V V c c p x y 5 , ; ; # o .             ",
"              .   X o 8 8 e w 9 > > : ; + o X .                 "
};
