/* XPM */
static char *out[] = {
/* columns rows colors chars-per-pixel */
"38 38 198 2 ",
"   c #1B3239",
".  c #2A2D33",
"X  c #2B3037",
"o  c #2C353C",
"O  c #25393F",
"+  c #2D393F",
"@  c #233A42",
"#  c #2E3A42",
"$  c #233D48",
"%  c #2E3E49",
"&  c #333D44",
"*  c #313F48",
"=  c #2D4147",
"-  c #24434C",
";  c #2D444D",
":  c #33454A",
">  c #33444C",
",  c #39474F",
"<  c #264551",
"1  c #2C4651",
"2  c #2E4C56",
"3  c #294C5C",
"4  c #334650",
"5  c #344B54",
"6  c #3B4C54",
"7  c #344F59",
"8  c #34525C",
"9  c #3B535C",
"0  c #2E5669",
"q  c #2D596B",
"w  c #345562",
"e  c #3B5661",
"r  c #3D5A64",
"t  c #345769",
"y  c #355B6C",
"u  c #3B5D6A",
"i  c #2E5B73",
"p  c #2E5E79",
"a  c #335D73",
"s  c #3A5E72",
"d  c #3D616E",
"f  c #2E637F",
"g  c #3B6476",
"h  c #386479",
"j  c #445157",
"k  c #45565D",
"l  c #49595F",
"z  c #405761",
"x  c #425B64",
"c  c #4C5D62",
"v  c #455F69",
"b  c #4A6067",
"n  c #44626D",
"m  c #4A626B",
"M  c #566469",
"N  c #4A6671",
"B  c #4C6A76",
"V  c #436B7B",
"C  c #4D6D7A",
"Z  c #526B74",
"A  c #5B6B72",
"S  c #526E79",
"D  c #4C717C",
"F  c #5A7077",
"G  c #52727D",
"H  c #5B747D",
"J  c #616F74",
"K  c #627277",
"L  c #6A787D",
"P  c #2F6785",
"I  c #356A85",
"U  c #3F7288",
"Y  c #387592",
"T  c #446E84",
"R  c #437485",
"E  c #497282",
"W  c #41778C",
"Q  c #4B7A8D",
"!  c #547684",
"~  c #5C7680",
"^  c #5D7984",
"/  c #547B8B",
"(  c #597B8A",
")  c #457A91",
"_  c #477B95",
"`  c #457E99",
"'  c #597F91",
"]  c #617781",
"[  c #637B83",
"{  c #637E8A",
"}  c #5A818F",
"|  c #4F8397",
" . c #4C859B",
".. c #538395",
"X. c #5D8393",
"o. c #5A8899",
"O. c #64818C",
"+. c #6B838C",
"@. c #76858B",
"#. c #76898F",
"$. c #648693",
"%. c #6C8790",
"&. c #668895",
"*. c #6B8A95",
"=. c #638B9C",
"-. c #6C8E9B",
";. c #728B93",
":. c #798D94",
">. c #738E98",
",. c #64939D",
"<. c #75919B",
"1. c #7B939B",
"2. c #4687A1",
"3. c #4C87A1",
"4. c #4C8CA3",
"5. c #558FA5",
"6. c #5D8DA1",
"7. c #578EA8",
"8. c #4B93AC",
"9. c #5590A6",
"0. c #5B92A5",
"q. c #5A95AC",
"w. c #5D9CAF",
"e. c #4E97B0",
"r. c #5797B0",
"t. c #5498B1",
"y. c #5C9BB3",
"u. c #6494A4",
"i. c #6797A7",
"p. c #6B95A5",
"a. c #6A97A8",
"s. c #659AAD",
"d. c #6D99AB",
"f. c #7496A2",
"g. c #7D97A1",
"h. c #7699A6",
"j. c #7D9AA4",
"k. c #739DAC",
"l. c #7B9DAA",
"z. c #639DB3",
"x. c #6C9EB3",
"c. c #7AA0AE",
"v. c #66A1B7",
"b. c #6AA6B7",
"n. c #6BA3B8",
"m. c #73A2B3",
"M. c #7AA3B2",
"N. c #7FA8B4",
"B. c #74A6BA",
"V. c #79A7B9",
"C. c #76ABBD",
"Z. c #7BABBD",
"A. c #79B1BD",
"S. c #7BAEC1",
"D. c #7EB0C2",
"F. c #82949B",
"G. c #89959A",
"H. c #849CA4",
"J. c #8A9DA4",
"K. c #829FA8",
"L. c #909CA0",
"P. c #84A3AD",
"I. c #8BA4AD",
"U. c #95A5AB",
"Y. c #88A7B1",
"T. c #83AAB6",
"R. c #8CAAB5",
"E. c #83ADBC",
"W. c #8BAEBA",
"Q. c #92ACB4",
"!. c #9AADB4",
"~. c #84B1BD",
"^. c #8DB2BA",
"/. c #9DB0B7",
"(. c #92B2BD",
"). c #9CB5BC",
"_. c #A2AEB4",
"`. c #A9B7BD",
"'. c #ADB8BB",
"]. c #B0BABE",
"[. c #84B4C4",
"{. c #89B6C6",
"}. c #8CBACA",
"|. c #93B6C1",
" X c #94BAC4",
".X c #92BECD",
"XX c #A6BBC3",
"oX c #A8BDC4",
"OX c #99C1CB",
"+X c #95C3D2",
"@X c #9BC5D3",
"#X c #9FC8D6",
"$X c #ABC1C8",
"%X c #BAC7CC",
"&X c #A5CCD9",
"*X c #B4CCD2",
"=X c #BACDD3",
"-X c #C1CACD",
/* pixels */
". . . . . . . . . . . . . . . . . . . . . . . . . . . . . . . . . . . . . . ",
". . . . . . . . . . . . . . . . . . . . . . . . . . . . . . . . . . . . . . ",
". . . . . . . . . . . . . . . . . X o # o o . . . . . . . . . . . . . . . . ",
". . . . . . . . . . . . . o # & 5 7 w w r 9 4 % o . . . . . . . . . . . . . ",
". . . . . . . . . . . & 6 x r d T V u u C ( ! D r 5 + X . . . . . . . . . . ",
". . . . . . . . . o > v +.{ r 8 w w r m ^ H Z G B ! n 4 o . . . . . . . . . ",
". . . . . . . . o 7 N B +.Z 8 7 7 e N v x n e 7 2 r B ! r # . . . . . . . . ",
". . . . . . . # w n Z m m x v V ../ *.O.[ g.~ 7 - 5 F >.$.n # . . . . . . . ",
". . . . . . # e S N ] v F ! <.s.[.V.x.d.l.W.o.8 2 m +.P.P.,.N + . . . . . . ",
". . . . . o z S B e v x V  .9.y.z.[.S.r.q.q.6.B Z <.1.P.I.I.,.d o . . . . . ",
". . . . . 6 &.{ N 7 r T 3.8.e.v.z.[.D.y.S.x.B.a.H +.#.#.H.U.N.,.9 . . . . . ",
". . . . # ! l.;.{ C !  .q.r.e.t.V..XD.z.D.S.q.i.*.Z r 9 A #.I.(.O.& . . . . ",
". . . . 6 -.K.{ ( / 0.q.n.v.t.v.{.{.{.}.+X{.q.6.! d 0 < 5 ^ 1.*X).c . . . . ",
". . . o m H.K.Z r T 4.e.t.y.S..X.X{.@X@X+X+Xx.` Q h i 3 < n 1.*X*X[ O X . . ",
". . . # B H.1.B g W 8.e.e.y..X&X+X}.@X@X+X+XB.7.u.h q i 0 d >.$X=Xc., . . . ",
". . . # C 1.] ~ | 4.t.e.e.Z.#X&X@X.X.X}.D.}.S.3._ P f h g d *.$X*X^.l . . . ",
". . X 7 C [ ] Z X.=.V.n.y.}.&X#XS.q.r.x.x.S.S.3.I P i i t s ' W.OX XN . . . ",
". . # e ] %.;.B $.o.m.b.y.D.@XOXs.3.7.B.T.C.s.Y P P I a C { =.0.b.A.D O . . ",
". . o x ~ [ +.! Q R ! | s.Z.c.%.E ~ h.S.B.Z.d.U P T =.! f.Y.h.0.w.A.D + . . ",
". . # v { g.H.%.D n %.B X.} N 8 x %.' ` ` _ ) y a ' h.f.I.Q.c.m.b.~.G + . . ",
". . X e E +.J.I.<.Z +.m r w u 2 2 x r q q g ! G g ! %.P.Y.K.6.9.w.~.S o . . ",
". . . 5 R E >.(.R.$.<.] n x B 8 < 7 Z 8 q B ;.l.%.G S l.P.&. .2.q.E.b X . . ",
". . . 4 )  .$.(.OXT.R.P.*.H m 2 < 2 v 7 3 x F ~ -.<.S 1.j.l.d.4.q.P.l . . . ",
". . . * Q 4...j.|.(.R.P.H.;.r < - 1 9 8 8 F ] O.<.<.H F.P.`.M.9.0.X., . . . ",
". . . # n 3.q.6.l.Y.W.j.>.%.m 1 - 7 H S y 9 [ F.1.F.:.I.`.XXd.s.5.n o . . . ",
". . . X % Y ` ` V. X}.$.v A ~ 7 ; x l 8 3 $ , c A #.+.*.).XXi.k...4 . . . . ",
". . . . # t Y ` Z..X.XM.u t u 2 x Z 4 @ @ # = : = c #.h.R.XXi. .s # . . . . ",
". . . . . % p Y m.}.}.Z.Q V h y F l @   O c K M = 9 %.h.oX%Xc.R * . . . . . ",
". . . . . X % I =.E.[.E.c.p.T g H r = O & J @.L z A ;.f.).$X-.8 . . . . . . ",
". . . . . . X e X.=.-.M.-.( y w n Z b l M L G.L.] :.L.H.XXI.m + . . . . . . ",
". . . . . . . # e V V $.O.C u n { H A K G.L.'.'.G.] :._._.K = . . . . . . . ",
". . . . . . . . o 5 C H.Q.I.:.Z m Z Z #.'.-X-X-X].J.F.G.J & . . . . . . . . ",
". . . . . . . . . . * ] J././.1.( U.!.XXoX-X-XXXJ.1.] j o . . . . . . . . . ",
". . . . . . . . . . . & k S { *.' K._./.J.J.F.{ M j & . . . . . . . . . . . ",
". . . . . . . . . . . . . # * j 6 v ~ ~ v j , * # . . . . . . . . . . . . . ",
". . . . . . . . . . . . . . . . . . # # # . . . . . . . . . . . . . . . . . ",
". . . . . . . . . . . . . . . . . . . . . . . . . . . . . . . . . . . . . . ",
". . . . . . . . . . . . . . . . . . . . . . . . . . . . . . . . . . . . . . "
};
