/* XPM */
static char *out[] = {
/* columns rows colors chars-per-pixel */
"38 38 196 2 ",
"   c #2A2D33",
".  c #332E33",
"X  c #3C2F33",
"o  c #3E3033",
"O  c #471512",
"+  c #4C1712",
"@  c #4E1814",
"#  c #541A14",
"$  c #5C1C15",
"%  c #5D1D18",
"&  c #641E15",
"*  c #6C1F13",
"=  c #631E19",
"-  c #652017",
";  c #6D2116",
":  c #662118",
">  c #6D2319",
",  c #732215",
"<  c #7B2416",
"1  c #742519",
"2  c #7C261B",
"3  c #76291B",
"4  c #7C2A1B",
"5  c #5D2725",
"6  c #422F33",
"7  c #532F31",
"8  c #592F30",
"9  c #423034",
"0  c #4C3234",
"q  c #533234",
"w  c #5C3232",
"e  c #6A2720",
"r  c #642824",
"t  c #6F2F29",
"y  c #712D26",
"u  c #6E312B",
"i  c #783026",
"p  c #77322A",
"a  c #7D332C",
"s  c #633433",
"d  c #6C3733",
"f  c #673A38",
"g  c #6B3B39",
"h  c #753B39",
"j  c #723F3D",
"k  c #7E433D",
"l  c #802416",
"z  c #83271B",
"x  c #832C1C",
"c  c #8C2B1C",
"v  c #922C1D",
"b  c #85311E",
"n  c #8B311E",
"m  c #94321F",
"M  c #862B20",
"N  c #8B2A20",
"B  c #932E21",
"V  c #992D24",
"C  c #823225",
"Z  c #8D3424",
"A  c #83392E",
"S  c #8A3A2C",
"D  c #953222",
"F  c #9B3424",
"G  c #9D3B25",
"H  c #93372B",
"J  c #9D3529",
"K  c #9E3D2F",
"L  c #A13425",
"P  c #A33B25",
"I  c #AC3C26",
"U  c #A63428",
"Y  c #AF3428",
"T  c #A33D2C",
"R  c #AB3C29",
"E  c #B23A25",
"W  c #B33429",
"Q  c #BB342B",
"!  c #B33C29",
"~  c #BA3E29",
"^  c #B83D31",
"/  c #C3382E",
"(  c #C83E32",
")  c #8F4036",
"_  c #9D4B39",
"`  c #A64027",
"'  c #A84027",
"]  c #A64229",
"[  c #AD442C",
"{  c #B5462B",
"}  c #BB432B",
"|  c #B8492E",
" . c #A34233",
".. c #AC4631",
"X. c #A64A36",
"o. c #AB4B32",
"O. c #A2453A",
"+. c #A64D3B",
"@. c #B14B35",
"#. c #B94934",
"$. c #B3473A",
"%. c #AC5237",
"&. c #AB553B",
"*. c #AC593B",
"=. c #B85637",
"-. c #B3573C",
";. c #BD5D3C",
":. c #B2603F",
">. c #C44B2F",
",. c #CA4B2E",
"<. c #C64632",
"1. c #CB4E31",
"2. c #C84935",
"3. c #CD463A",
"4. c #C25437",
"5. c #C5563A",
"6. c #CF5038",
"7. c #D65535",
"8. c #DA5736",
"9. c #D35839",
"0. c #DD5D3C",
"q. c #E05F3C",
"w. c #E0653F",
"e. c #824E43",
"r. c #A44C44",
"t. c #AB4F48",
"y. c #A55446",
"u. c #A95C44",
"i. c #AB534A",
"p. c #A75948",
"a. c #A65949",
"s. c #A95C49",
"d. c #B65740",
"f. c #BA544C",
"g. c #B65D4E",
"h. c #BC5D51",
"j. c #AF6545",
"k. c #A76249",
"l. c #AA644B",
"z. c #AD6B4C",
"x. c #B06342",
"c. c #B2644D",
"v. c #B06E4E",
"b. c #B9694A",
"n. c #AF714E",
"m. c #B1724F",
"M. c #B66752",
"N. c #B47551",
"B. c #B77857",
"V. c #BD7854",
"C. c #CF4C40",
"Z. c #C15546",
"A. c #C65F40",
"S. c #D15344",
"D. c #D75C42",
"F. c #D35B4B",
"G. c #C25E52",
"H. c #D45B51",
"J. c #CB6445",
"K. c #C3644E",
"L. c #D06746",
"P. c #D86847",
"I. c #D7634C",
"U. c #DC6C4D",
"Y. c #CB764F",
"T. c #CC6257",
"R. c #C86954",
"E. c #D76754",
"W. c #D96952",
"Q. c #D4655A",
"!. c #D66A5B",
"~. c #C67753",
"^. c #CD7757",
"/. c #C97A58",
"(. c #DE7654",
"). c #DD7857",
"_. c #D1725A",
"`. c #DB755B",
"'. c #D47B59",
"]. c #DE7B5C",
"[. c #E16741",
"{. c #E16A44",
"}. c #E2774E",
"|. c #E17651",
" X c #DA7660",
".X c #DB875D",
"XX c #E2835C",
"oX c #E58B5E",
"OX c #D88261",
"+X c #DA8C61",
"@X c #DF9165",
"#X c #E18763",
"$X c #E48C61",
"%X c #E69364",
"&X c #E69966",
"*X c #E59C69",
/* pixels */
"                                                                            ",
"                                                                            ",
"                                                                            ",
"                            . X q f h k g 0 6 .                             ",
"                        o j p.K.^.'.F.I.}.L.;._ f 6                         ",
"                    X e.y.^..XT.Z.R.}.U.$...6.1.| ) d o                     ",
"                  q i.OX`.].$XXXE.H.W.}.J.K J R P 4 C a q                   ",
"                f G.!.!.'._.#X$X].H.H.H.J.o.J G m m 4 4 C w .               ",
"              g Q.%XOX/.a.V.*X%X`.H.).(.-.+.J V F m n 3 4 C w               ",
"            q M.@X*Xn.z.z.OX%X*X%X`.E.(.}.;. .D c x i x 3 > C q             ",
"          o a.y.c./.B.n.r.c.+X%X%X&XoXW.Z.A.5.` v z , 4 4 3 : p X           ",
"          e.B.s.r.r.k.l.r.r.t.+X&X*X&XoXU.P.[.8.F D x , 3 4 > x d           ",
"        9 B.a.r.r.r.r.i.i.r.r./.$X$XoXXXU.{.w.1.D N x b 4 4 3 ; C 6         ",
"        j c.y.a.z.z.s.Q.Q.h.a.T.$X&XoXI.S.$.[ R G D N < ; > , 3 c w         ",
"      . a.a.n.z.m.B.v.+X XQ. X$X`.$X%X}.S.^ F F P >.' F 4 1 - 1 F a .       ",
"      X M.k.s.k.a.a.r.k.B.T.T.#X%X].(.}.S.3.<.1.,.{ R P b 4 > % H H o       ",
"      0 h.t.y.a.r.y.r.r.h.z.v._.].oXXXF.C.3./ <.,.} P B 4 < Z > 2 ] 0       ",
"      g !.f.r.N.v.l.l.g.Q.t.s.V.+X).|.}.D.3./ Q R R I G * > Z c , B w       ",
"      k  XQ./.z.m.l.k.G.t.t.s.y.c.~.-.C.D.6.Q W L V F F 1 $ - 3 3 c s       ",
"      k OXh.c.z.m.s.r.r.r.r.k.x.*.&.%.#.( / W U V F F x 3 , - $ $ D d       ",
"      f f._ s.y.y.z.p.+.O._ +.*.*.%.o.[ } Q ~ R B x > , : , 1 : : T w       ",
"      6 W.b.j.j.y.+.j.&. . .&.%.;.| [ ' >.Y U I P M # # : : & x , G 0       ",
"      X K.^.x.u.O. .&.j.*.%.O.=.[.9.` ` { } v B F D 4 + # & , 4 4 S o       ",
"        O.Y.:.o.O.X. .O.+.o...[ 9.8.7.,.L n c 2 3 ; < ; $ # ; < c A .       ",
"        f I.-.*. .%.P.D.4.J V V B 2.,.~ ! L , $ # & , , , , * , x s         ",
"        o d.9.@...T 0.w.q.} G D D } Y ~ F D Z = @ O # & , , * & y 9         ",
"          d 5.{ [ | 7.8.8.#.R P { ,.! v Z < , ; = O O # > , < * w           ",
"          X ) [ ' K [ ` 1.2.E Y } ~ R M , , * < z < & 1 c 4 4 r .           ",
"            q  .G ] F v D Y <.L L I L 4 * & & & , c c c v c > 9             ",
"              s F D L n c v m L l 4 x , * , < , * , v v v Z w               ",
"                w Z m E Y c < , & * & & $ * * * < v v c S w .               ",
"                  0 a x n n z & & * , * $ + * , * < x t 0                   ",
"                    X s i c z < ; * ; < < $ O O + : w .                     ",
"                        9 w u e $ O # & z , 5 5 8 X                         ",
"                            . X 9 7 7 8 7 9 6                               ",
"                                                                            ",
"                                                                            ",
"                                                                            "
};
