/* XPM */
static char *_5f215d823cb4da393779eddf7b724be6VMFV7064ldkVXeQ[] = {
/* columns rows colors chars-per-pixel */
"32 32 145 2 ",
"   c #2A2D33",
".  c #2C3036",
"X  c #2E3239",
"o  c #31363C",
"O  c #32383E",
"+  c #3B2C47",
"@  c #3C2E49",
"#  c #363D44",
"$  c #383F46",
"%  c #3F314C",
"&  c #41334E",
"*  c #443650",
"=  c #463852",
"-  c #4A3D55",
";  c #4D3F59",
":  c #3C444B",
">  c #414B53",
",  c #4E405A",
"<  c #534461",
"1  c #564B65",
"2  c #5B4C6A",
"3  c #5E566D",
"4  c #57676F",
"5  c #58676F",
"6  c #5B6B73",
"7  c #5F6F79",
"8  c #677983",
"9  c #687A84",
"0  c #6F828C",
"q  c #758A94",
"w  c #7A8F9A",
"e  c #7A909A",
"r  c #7F95A1",
"t  c #249FD5",
"y  c #299FD4",
"u  c #25A0D5",
"i  c #2BA2D6",
"p  c #2BA4D9",
"a  c #33A5D6",
"s  c #37A7D8",
"d  c #39A7D8",
"f  c #38B1E6",
"g  c #38B2E8",
"h  c #2DB6F3",
"j  c #2DB9F6",
"k  c #31B6F1",
"l  c #34BAF5",
"z  c #39BCF4",
"x  c #57B1D9",
"c  c #5DB4DB",
"v  c #64B7DC",
"b  c #66B8DC",
"n  c #6DBCDE",
"m  c #71BCDD",
"M  c #79BFDE",
"N  c #7CC0DE",
"B  c #57C1F1",
"V  c #5FC4F0",
"C  c #65C0E7",
"Z  c #6CC2E7",
"A  c #6EC7EE",
"S  c #6FC8EE",
"D  c #75C4E6",
"F  c #7BC1E0",
"G  c #70C8EE",
"H  c #7DCCEE",
"J  c #65C6F1",
"K  c #69C7F1",
"L  c #6BC9F1",
"P  c #74CAF0",
"I  c #848293",
"U  c #8D8C9B",
"Y  c #879EA9",
"T  c #9494A2",
"R  c #9D9CA8",
"E  c #A29FAA",
"W  c #8BA3AE",
"Q  c #8FA8B3",
"!  c #92AAB5",
"~  c #9AB3BE",
"^  c #A4A3AE",
"/  c #AEACB6",
"(  c #AEAFBA",
")  c #B8B6BE",
"_  c #9DB5C0",
"`  c #A2BBC6",
"'  c #A6BEC9",
"]  c #BBBBC2",
"[  c #81C3DF",
"{  c #89C5DF",
"}  c #A6C1CC",
"|  c #A9C3CD",
" . c #ADC6D1",
".. c #AFC9D4",
"X. c #B1CAD4",
"o. c #B5CED9",
"O. c #BED2DA",
"+. c #81C7E7",
"@. c #8DCBE5",
"#. c #82CEEF",
"$. c #8ACDEA",
"%. c #95CBE2",
"&. c #99CBE1",
"*. c #8BD0ED",
"=. c #96D0E7",
"-. c #92D1EC",
";. c #9AD3EB",
":. c #8ED6F4",
">. c #97D9F4",
",. c #9CDBF4",
"<. c #A2D6EB",
"1. c #AFDBED",
"2. c #B4D5E4",
"3. c #B9D7E4",
"4. c #BDD9E5",
"5. c #B6DAE9",
"6. c #BCDDEA",
"7. c #A3DCF4",
"8. c #B0E1F4",
"9. c #BDE3F2",
"0. c #C3C4CB",
"q. c #C0D3DB",
"w. c #C5D9E2",
"e. c #CEDDE4",
"r. c #C1DCE9",
"t. c #CADFE9",
"y. c #D2DEE4",
"u. c #C7E4EE",
"i. c #CDE2EA",
"p. c #D3E1E7",
"a. c #DCE3E6",
"s. c #D4E3EA",
"d. c #D9E3E8",
"f. c #DDE5E8",
"g. c #DCE5E9",
"h. c #DDE9ED",
"j. c #C5E6F2",
"k. c #DDEDF1",
"l. c #E1E6E9",
"z. c #E1E8EB",
"x. c #E1EBEF",
"c. c #E1ECEF",
"v. c #E0EDF0",
"b. c #E8EFF1",
"n. c #EAF0F2",
/* pixels */
"                    $ 6 q W ~ _ _ ~ W q 5 $                     ",
"                > w ' w.i.s.s.s.s.s.s.i.w.` q >                 ",
"            O q o.s.s.p.p.p.p.O.O.p.p.p.p.s.s.X.0 X             ",
"          > ~ i.p.y.y.p.p.p.s. .X.s.p.p.p.y.y.p.i.! :           ",
"        > | s.y.s.n.s.y.p.f.f.f.a.a.a.p.p.f.b.p.p.s.` :         ",
"      : ` s.p.p.s.x.f.a.4.&.[ F H #.;.r.a.f.c.s.p.p.s.~ $       ",
"    o ! s.p.p.p.p.a.2.b d i i p h j j z K 5.a.p.p.p.p.s.W X     ",
"    0 i.p.p.p.p.p.[ a i a i i i h h j l j l *.d.p.p.p.p.i.9     ",
"  > X.s.e.y.p.f.D t s i s n =.<.7.>.L z l z j +.a.p.y.e.s.X.:   ",
"  q s.p.} X.l.$.j f i v u.y.] / / ] y.j.V j f i %.z.X.| p.s.q   ",
"$ ' s.p.w.y.6.l z j D f.R 1 * & & * 1 E h.Z i s a 3.y.w.p.s.' $ ",
"6 w.p.p.s.a.K j l V v.I + = - - - - = @ U x.x i i b f.s.p.p.w.4 ",
"e s.p.p.p.6.z l z j.^ % ; - - - - , 2 2 * ( 6.a a s 4.p.p.p.s.w ",
"! s.p.p.a.;.j j L y.1 = - - - - - < 2 2 ; 3 f.c i i %.f.p.p.s.! ",
"' s.p.e.a.H j h ,.) * - - - - - - ; 1 1 ; = 0.@.y i M f.e.p.s.' ",
" .p.h.x.a.S h k 8.E & ; - - - - - - - - - & / <.i p n a.v.h.p. .",
"| p.h.c.a.n p i 1.E & ; - - - - - - - - - & / 7.h h G a.c.h.p.| ",
"_ s.y.e.f.N i y ;.] & - - - - - - - - - - = 0.:.j j H a.e.y.s.` ",
"! s.p.p.f.%.i i n y.1 = - - - - - - - ; = 3 a.J l j ;.a.p.p.s.! ",
"w i.p.p.p.4.s a s u.^ + ; - - - - - - - % / 9.l l z 6.p.p.p.s.w ",
"6 w.p.p.s.f.v i i c f.U & & - - - - = & T h.B l j L a.s.p.p.w.4 ",
": } s.p.w.y.2.a s i Z k./ 3 * & & * 3 ( h.C j l l 6.y.w.p.s.` # ",
"  e s.p.} X.z.{ u f j B 9.a.] / / ] a.6.x i g j -.l.X.| s.s.q   ",
"  > o.p.e.y.p.a.+.j z l l K >.7.<.%.b a i a i $.d.p.y.e.s...:   ",
"    0 i.p.p.p.p.f.-.l j l j h h i i i a i s %.a.p.p.p.p.i.8     ",
"    o ! s.p.p.p.p.a.5.K l j j h p i i s b 3.a.p.p.p.p.s.W X     ",
"      : ` s.y.p.s.x.f.a.6.-.P A n m %.3.a.f.x.s.p.p.s.~ $       ",
"        : ~ s.y.s.n.s.p.a.a.a.a.f.f.f.d.p.f.n.p.p.s.! $         ",
"          : Q i.p.y.y.p.p.p.s. .X.s.p.p.p.y.y.s.t.Y #           ",
"            X 0 o.s.s.p.p.p.s.O.q.s.y.p.p.s.s...8 .             ",
"                > e | w.s.s.p.s.s.p.s.s.w.' q >                 ",
"                    : 7 r ~ | | | | ~ r 6 :                     "
};
