/* XPM */
static char *_9a408b0ab6b47ebb6421559439add84wLkl7bLUNDxTuN7x[] = {
/* columns rows colors chars-per-pixel */
"32 32 40 1 ",
"  c #2A2D33",
". c #2B2E34",
"X c #2C2F35",
"o c #2D3036",
"O c #2F3239",
"+ c #34363C",
"@ c #36383E",
"# c #393C42",
"$ c #585A5F",
"% c #5C5E63",
"& c #6D6E74",
"* c #6F7076",
"= c #717378",
"- c #7A7B80",
"; c #828387",
": c #838488",
"> c #8A8B91",
", c #8E8F95",
"< c #909297",
"1 c #999B9F",
"2 c #989AA3",
"3 c #999BA4",
"4 c #999CA4",
"5 c #9DA0A7",
"6 c #9FA2A9",
"7 c #A3A4A9",
"8 c #A5A7AC",
"9 c #A6A8AC",
"0 c #A8A9B1",
"q c #B5B7BD",
"w c #BDBFC5",
"e c #C1C2C7",
"r c #C1C2C8",
"t c #C2C4C8",
"y c #C5C6CB",
"u c #C7C7CD",
"i c #C9CACE",
"p c #C8CAD0",
"a c #CBCDD1",
"s c #CCCDD2",
/* pixels */
"                                ",
"         X                      ",
"                                ",
"                                ",
"                                ",
"                      ..        ",
"                      Oo        ",
"                                ",
"               .                ",
"               .                ",
"   o.        #98@               ",
"   O.        <ip,               ",
"          %:1y56y1;$          X ",
"          tw063360we            ",
"          >r433334r>            ",
"          +2u2342u2+            ",
"           *s2222s*             ",
"           =a0qq0a=             ",
"           *y7--7t&             ",
"                                ",
" .                              ",
" .                              ",
"                         ..     ",
"                                ",
"                                ",
"                                ",
"         .      O.              ",
"                o.              ",
"                                ",
"                                ",
"                     X          ",
"                                "
};
